; G-Code generated by Simplify3D(R) Version 4.0.0
; Nov 1, 2022 at 7:58:05 PM
; Settings Summary
;   processName,Process1
;   applyToModels,1x2inch_endcaps,1x2inch_endcaps(2),1x2inch_endcaps(3),1x2inch_endcaps(4),1inch_endcaps,1inch_endcaps(2)
;   profileName,TPU White (modified)
;   profileVersion,2022-04-13 13:35:08
;   baseProfile,Default (modified)
;   printMaterial,PLA
;   printQuality,Medium
;   printExtruders,
;   extruderName,Primary Extruder
;   extruderToolheadNumber,0
;   extruderDiameter,0.4
;   extruderAutoWidth,1
;   extruderWidth,0.48
;   extrusionMultiplier,1.1
;   extruderUseRetract,1
;   extruderRetractionDistance,8
;   extruderExtraRestartDistance,0
;   extruderRetractionZLift,0
;   extruderRetractionSpeed,1200
;   extruderUseCoasting,1
;   extruderCoastingDistance,0.4
;   extruderUseWipe,0
;   extruderWipeDistance,1
;   primaryExtruder,0
;   layerHeight,0.28
;   topSolidLayers,3
;   bottomSolidLayers,3
;   perimeterOutlines,2
;   printPerimetersInsideOut,1
;   startPointOption,2
;   startPointOriginX,0
;   startPointOriginY,0
;   sequentialIslands,0
;   spiralVaseMode,0
;   firstLayerHeightPercentage,80
;   firstLayerWidthPercentage,100
;   firstLayerUnderspeed,0.75
;   useRaft,0
;   raftExtruder,0
;   raftTopLayers,3
;   raftBaseLayers,2
;   raftOffset,3
;   raftSeparationDistance,0.14
;   raftTopInfill,100
;   aboveRaftSpeedMultiplier,0.3
;   useSkirt,1
;   skirtExtruder,0
;   skirtLayers,1
;   skirtOutlines,4
;   skirtOffset,5
;   usePrimePillar,0
;   primePillarExtruder,999
;   primePillarWidth,12
;   primePillarLocation,7
;   primePillarSpeedMultiplier,1
;   useOozeShield,0
;   oozeShieldExtruder,999
;   oozeShieldOffset,2
;   oozeShieldOutlines,1
;   oozeShieldSidewallShape,1
;   oozeShieldSidewallAngle,30
;   oozeShieldSpeedMultiplier,1
;   infillExtruder,0
;   internalInfillPattern,Rectilinear
;   externalInfillPattern,Rectilinear
;   infillPercentage,30
;   outlineOverlapPercentage,15
;   infillExtrusionWidthPercentage,100
;   minInfillLength,5
;   infillLayerInterval,1
;   internalInfillAngles,45,-45
;   overlapInternalInfillAngles,0
;   externalInfillAngles,45,-45
;   generateSupport,0
;   supportExtruder,0
;   supportInfillPercentage,20
;   supportExtraInflation,0
;   supportBaseLayers,0
;   denseSupportExtruder,0
;   denseSupportLayers,0
;   denseSupportInfillPercentage,70
;   supportLayerInterval,1
;   supportHorizontalPartOffset,0.3
;   supportUpperSeparationLayers,1
;   supportLowerSeparationLayers,1
;   supportType,0
;   supportGridSpacing,4
;   maxOverhangAngle,30
;   supportAngles,0
;   temperatureName,Primary Extruder
;   temperatureNumber,0
;   temperatureSetpointCount,1
;   temperatureSetpointLayers,1
;   temperatureSetpointTemperatures,220
;   temperatureStabilizeAtStartup,1
;   temperatureHeatedBed,0
;   temperatureRelayBetweenLayers,0
;   temperatureRelayBetweenLoops,0
;   fanLayers,1
;   fanSpeeds,0
;   blipFanToFullPower,1
;   adjustSpeedForCooling,1
;   minSpeedLayerTime,15
;   minCoolingSpeedSlowdown,30
;   increaseFanForCooling,0
;   minFanLayerTime,45
;   maxCoolingFanSpeed,100
;   increaseFanForBridging,0
;   bridgingFanSpeed,100
;   use5D,1
;   relativeEdistances,1
;   allowEaxisZeroing,0
;   independentExtruderAxes,0
;   includeM10123,0
;   stickySupport,0
;   applyToolheadOffsets,0
;   gcodeXoffset,0
;   gcodeYoffset,0
;   gcodeZoffset,0
;   overrideMachineDefinition,0
;   machineTypeOverride,0
;   strokeXoverride,300
;   strokeYoverride,190
;   strokeZoverride,200
;   originOffsetXoverride,0
;   originOffsetYoverride,0
;   originOffsetZoverride,0
;   homeXdirOverride,-1
;   homeYdirOverride,1
;   homeZdirOverride,-1
;   flipXoverride,1
;   flipYoverride,-1
;   flipZoverride,1
;   toolheadOffsets,0,0|0,0|0,0|0,0|0,0|0,0
;   overrideFirmwareConfiguration,0
;   firmwareTypeOverride,RepRap (Marlin/Repetier/Sprinter)
;   GPXconfigOverride,r2
;   baudRateOverride,115200
;   overridePrinterModels,0
;   printerModelsOverride
;   startingGcode,G28 ; home all axes,G0 X150 Y100;,G0 Z5;
;   layerChangeGcode,
;   retractionGcode,
;   toolChangeGcode,
;   endingGcode,G0 X150 Y230.00;,,M300 S440 P200 ; play a tone,M300 S660 P250,M300 S880 P300,,M104 S0 ; turn off extruder,M140 S0 ; turn off bed,M84 ; disable motors
;   exportFileFormat,gcode
;   celebration,0
;   celebrationSong,Random Song
;   postProcessing,
;   defaultSpeed,3000
;   outlineUnderspeed,0.75
;   solidInfillUnderspeed,0.8
;   supportUnderspeed,0.8
;   rapidXYspeed,3600
;   rapidZspeed,42
;   minBridgingArea,50
;   bridgingExtraInflation,0
;   bridgingExtrusionMultiplier,1
;   bridgingSpeedMultiplier,1
;   useFixedBridgingAngle,0
;   fixedBridgingAngle,0
;   applyBridgingToPerimeters,0
;   filamentDiameters,1.75|1.75|1.75|1.75|1.75|1.75
;   filamentPricesPerKg,4400|46|46|46|46|46
;   filamentDensities,1.43|1.25|1.25|1.25|1.25|1.25
;   useMinPrintHeight,0
;   minPrintHeight,1
;   useMaxPrintHeight,0
;   maxPrintHeight,1
;   useDiaphragm,0
;   diaphragmLayerInterval,20
;   robustSlicing,1
;   mergeAllIntoSolid,0
;   onlyRetractWhenCrossingOutline,1
;   retractBetweenLayers,1
;   useRetractionMinTravel,1
;   retractionMinTravel,3
;   retractWhileWiping,0
;   onlyWipeOutlines,1
;   avoidCrossingOutline,1
;   maxMovementDetourFactor,3
;   toolChangeRetractionDistance,12
;   toolChangeExtraRestartDistance,-0.5
;   toolChangeRetractionSpeed,600
;   externalThinWallType,0
;   internalThinWallType,1
;   thinWallAllowedOverlapPercentage,10
;   singleExtrusionMinLength,1
;   singleExtrusionMinPrintingWidthPercentage,50
;   singleExtrusionMaxPrintingWidthPercentage,200
;   singleExtrusionEndpointExtension,0.2
;   horizontalSizeCompensation,0
G90
M83
M106 S255
G4 P500
M106 S0
M104 S220 T0
M109 S220 T0
G28 ; home all axes
G0 X150 Y100;
G0 Z5;
G1 X0.000 Y0.000 Z0.000 E-8.0000 F1200
G1 X0.000 Y0.000 Z0.224 F42
; process Process1
; layer 1, Z = 0.224
T0
; tool H0.280 W0.480
; skirt
G1 X87.776 Y84.277 Z0.224 F3600
G1 X87.776 Y84.277 Z0.224 E8.0000 F360
G1 X91.177 Y80.876 Z0.224 E0.2957 F2250
G1 X91.795 Y80.620 Z0.224 E0.0411 F2250
G1 X147.405 Y80.620 Z0.224 E3.4181 F2250
G1 X147.500 Y80.659 Z0.224 E0.0063 F2250
G1 X147.595 Y80.620 Z0.224 E0.0063 F2250
G1 X203.205 Y80.620 Z0.224 E3.4181 F2250
G1 X203.823 Y80.876 Z0.224 E0.0411 F2250
G1 X203.998 Y81.052 Z0.224 E0.0153 F2250
G1 X230.474 Y81.052 Z0.224 E1.6273 F2250
G1 X231.091 Y81.307 Z0.224 E0.0411 F2250
G1 X234.493 Y84.709 Z0.224 E0.2957 F2250
G1 X234.748 Y85.326 Z0.224 E0.0411 F2250
G1 X234.748 Y114.389 Z0.224 E1.7863 F2250
G1 X234.948 Y114.871 Z0.224 E0.0321 F2250
G1 X234.948 Y145.082 Z0.224 E1.8569 F2250
G1 X234.692 Y145.699 Z0.224 E0.0411 F2250
G1 X231.291 Y149.101 Z0.224 E0.2957 F2250
G1 X230.673 Y149.356 Z0.224 E0.0411 F2250
G1 X200.463 Y149.356 Z0.224 E1.8569 F2250
G1 X199.846 Y149.101 Z0.224 E0.0411 F2250
G1 X199.716 Y148.971 Z0.224 E0.0113 F2250
G1 X148.576 Y148.971 Z0.224 E3.1433 F2250
G1 X148.023 Y149.524 Z0.224 E0.0481 F2250
G1 X147.405 Y149.780 Z0.224 E0.0411 F2250
G1 X91.795 Y149.780 Z0.224 E3.4181 F2250
G1 X91.177 Y149.524 Z0.224 E0.0411 F2250
G1 X87.776 Y146.123 Z0.224 E0.2957 F2250
G1 X87.520 Y145.505 Z0.224 E0.0411 F2250
G1 X87.520 Y115.295 Z0.224 E1.8569 F2250
G1 X87.559 Y115.200 Z0.224 E0.0063 F2250
G1 X87.520 Y115.105 Z0.224 E0.0063 F2250
G1 X87.520 Y84.895 Z0.224 E1.8569 F2250
G1 X87.623 Y84.647 Z0.224 E0.0165 F2250
G1 X87.776 Y84.277 Z0.224 F2250
G1 X88.183 Y84.549 Z0.224 F3600
G1 X91.449 Y81.283 Z0.224 E0.2839 F2250
G1 X91.890 Y81.100 Z0.224 E0.0293 F2250
G1 X147.310 Y81.100 Z0.224 E3.4063 F2250
G1 X147.500 Y81.179 Z0.224 E0.0127 F2250
G1 X147.690 Y81.100 Z0.224 E0.0127 F2250
G1 X203.110 Y81.100 Z0.224 E3.4063 F2250
G1 X203.551 Y81.283 Z0.224 E0.0293 F2250
G1 X203.800 Y81.531 Z0.224 E0.0216 F2250
G1 X230.378 Y81.531 Z0.224 E1.6336 F2250
G1 X230.819 Y81.714 Z0.224 E0.0293 F2250
G1 X234.086 Y84.981 Z0.224 E0.2839 F2250
G1 X234.268 Y85.422 Z0.224 E0.0293 F2250
G1 X234.268 Y114.509 Z0.224 E1.7878 F2250
G1 X234.286 Y114.526 Z0.224 E0.0015 F2250
G1 X234.468 Y114.967 Z0.224 E0.0293 F2250
G1 X234.468 Y144.986 Z0.224 E1.8451 F2250
G1 X234.286 Y145.427 Z0.224 E0.0293 F2250
G1 X231.019 Y148.694 Z0.224 E0.2839 F2250
G1 X230.578 Y148.876 Z0.224 E0.0293 F2250
G1 X200.558 Y148.876 Z0.224 E1.8451 F2250
G1 X200.117 Y148.694 Z0.224 E0.0293 F2250
G1 X199.914 Y148.491 Z0.224 E0.0176 F2250
G1 X148.377 Y148.491 Z0.224 E3.1677 F2250
G1 X147.751 Y149.117 Z0.224 E0.0545 F2250
G1 X147.310 Y149.300 Z0.224 E0.0293 F2250
G1 X91.890 Y149.300 Z0.224 E3.4063 F2250
G1 X91.449 Y149.117 Z0.224 E0.0293 F2250
G1 X88.183 Y145.851 Z0.224 E0.2839 F2250
G1 X88.000 Y145.410 Z0.224 E0.0293 F2250
G1 X88.000 Y115.390 Z0.224 E1.8451 F2250
G1 X88.079 Y115.200 Z0.224 E0.0127 F2250
G1 X88.000 Y115.010 Z0.224 E0.0127 F2250
G1 X88.000 Y84.990 Z0.224 E1.8451 F2250
G1 X88.030 Y84.919 Z0.224 E0.0048 F2250
G1 X88.183 Y84.549 Z0.224 F2250
G1 X88.590 Y84.821 Z0.224 F3600
G1 X91.721 Y81.690 Z0.224 E0.2722 F2250
G1 X91.986 Y81.580 Z0.224 E0.0176 F2250
G1 X147.214 Y81.580 Z0.224 E3.3946 F2250
G1 X147.479 Y81.690 Z0.224 E0.0176 F2250
G1 X147.500 Y81.711 Z0.224 E0.0018 F2250
G1 X147.521 Y81.690 Z0.224 E0.0018 F2250
G1 X147.786 Y81.580 Z0.224 E0.0176 F2250
G1 X203.014 Y81.580 Z0.224 E3.3946 F2250
G1 X203.279 Y81.690 Z0.224 E0.0176 F2250
G1 X203.601 Y82.011 Z0.224 E0.0280 F2250
G1 X230.283 Y82.011 Z0.224 E1.6400 F2250
G1 X230.547 Y82.121 Z0.224 E0.0176 F2250
G1 X233.679 Y85.253 Z0.224 E0.2722 F2250
G1 X233.788 Y85.517 Z0.224 E0.0176 F2250
G1 X233.788 Y114.707 Z0.224 E1.7942 F2250
G1 X233.879 Y114.797 Z0.224 E0.0078 F2250
G1 X233.988 Y115.062 Z0.224 E0.0176 F2250
G1 X233.988 Y144.891 Z0.224 E1.8334 F2250
G1 X233.879 Y145.155 Z0.224 E0.0176 F2250
G1 X230.747 Y148.287 Z0.224 E0.2722 F2250
G1 X230.482 Y148.396 Z0.224 E0.0176 F2250
G1 X200.654 Y148.396 Z0.224 E1.8334 F2250
G1 X200.389 Y148.287 Z0.224 E0.0176 F2250
G1 X200.113 Y148.011 Z0.224 E0.0240 F2250
G1 X148.179 Y148.011 Z0.224 E3.1921 F2250
G1 X147.479 Y148.710 Z0.224 E0.0608 F2250
G1 X147.214 Y148.820 Z0.224 E0.0176 F2250
G1 X91.986 Y148.820 Z0.224 E3.3946 F2250
G1 X91.721 Y148.710 Z0.224 E0.0176 F2250
G1 X88.590 Y145.579 Z0.224 E0.2722 F2250
G1 X88.480 Y145.314 Z0.224 E0.0176 F2250
G1 X88.480 Y115.486 Z0.224 E1.8334 F2250
G1 X88.590 Y115.221 Z0.224 E0.0176 F2250
G1 X88.611 Y115.200 Z0.224 E0.0018 F2250
G1 X88.590 Y115.179 Z0.224 E0.0018 F2250
G1 X88.480 Y114.914 Z0.224 E0.0176 F2250
G1 X88.480 Y85.199 Z0.224 E1.8264 F2250
G1 X88.480 Y85.086 Z0.224 F2250
G1 X88.590 Y84.821 Z0.224 F2250
G1 X88.997 Y85.093 Z0.224 F3600
G1 X91.993 Y82.097 Z0.224 E0.2605 F2250
G1 X92.081 Y82.060 Z0.224 E0.0059 F2250
G1 X147.119 Y82.060 Z0.224 E3.3829 F2250
G1 X147.207 Y82.097 Z0.224 E0.0059 F2250
G1 X147.500 Y82.390 Z0.224 E0.0255 F2250
G1 X147.793 Y82.097 Z0.224 E0.0255 F2250
G1 X147.881 Y82.060 Z0.224 E0.0059 F2250
G1 X202.919 Y82.060 Z0.224 E3.3829 F2250
G1 X203.007 Y82.097 Z0.224 E0.0059 F2250
G1 X203.402 Y82.492 Z0.224 E0.0343 F2250
G1 X230.187 Y82.492 Z0.224 E1.6464 F2250
G1 X230.275 Y82.528 Z0.224 E0.0059 F2250
G1 X233.272 Y85.524 Z0.224 E0.2605 F2250
G1 X233.308 Y85.613 Z0.224 E0.0059 F2250
G1 X233.308 Y114.906 Z0.224 E1.8005 F2250
G1 X233.472 Y115.069 Z0.224 E0.0142 F2250
G1 X233.508 Y115.158 Z0.224 E0.0059 F2250
G1 X233.508 Y144.795 Z0.224 E1.8217 F2250
G1 X233.472 Y144.883 Z0.224 E0.0059 F2250
G1 X230.475 Y147.880 Z0.224 E0.2605 F2250
G1 X230.387 Y147.916 Z0.224 E0.0059 F2250
G1 X200.749 Y147.916 Z0.224 E1.8217 F2250
G1 X200.661 Y147.880 Z0.224 E0.0059 F2250
G1 X200.312 Y147.531 Z0.224 E0.0304 F2250
G1 X147.980 Y147.531 Z0.224 E3.2166 F2250
G1 X147.207 Y148.303 Z0.224 E0.0672 F2250
G1 X147.119 Y148.340 Z0.224 E0.0059 F2250
G1 X92.081 Y148.340 Z0.224 E3.3829 F2250
G1 X91.993 Y148.303 Z0.224 E0.0059 F2250
G1 X88.997 Y145.307 Z0.224 E0.2605 F2250
G1 X88.960 Y145.219 Z0.224 E0.0059 F2250
G1 X88.960 Y115.581 Z0.224 E1.8217 F2250
G1 X88.997 Y115.493 Z0.224 E0.0059 F2250
G1 X89.290 Y115.200 Z0.224 E0.0255 F2250
G1 X88.997 Y114.907 Z0.224 E0.0255 F2250
G1 X88.960 Y114.819 Z0.224 E0.0059 F2250
G1 X88.960 Y85.486 Z0.224 E1.8030 F2250
G1 X88.960 Y85.181 Z0.224 F2250
G1 X88.997 Y85.093 Z0.224 F2250
G1 X88.997 Y85.093 Z0.224 E-8.0000 F1200
; inner perimeter
G1 X94.435 Y87.535 Z0.224 F3600
G1 X94.435 Y87.780 Z0.224 F3600
G1 X94.920 Y88.020 Z0.224 F3600
G1 X94.920 Y88.020 Z0.224 E8.0000 F1200
G1 X144.280 Y88.020 Z0.224 E3.0339 F1969
G1 X144.280 Y111.980 Z0.224 E1.4727 F1969
G1 X94.920 Y111.980 Z0.224 E3.0339 F1969
G1 X94.920 Y88.420 Z0.224 E1.4481 F1969
G1 X94.920 Y88.020 Z0.224 F1969
; outer perimeter
G1 X94.440 Y87.540 Z0.224 F3600
G1 X144.760 Y87.540 Z0.224 E3.0929 F1688
G1 X144.760 Y112.460 Z0.224 E1.5317 F1688
G1 X94.440 Y112.460 Z0.224 E3.0929 F1688
G1 X94.440 Y87.940 Z0.224 E1.5071 F1688
G1 X94.440 Y87.540 Z0.224 F1688
; solid layer
G1 X95.833 Y111.572 Z0.224 F3600
G1 X95.328 Y111.067 Z0.224 E0.0439 F1800
G1 X95.328 Y110.388 Z0.224 E0.0417 F1800
G1 X96.512 Y111.572 Z0.224 E0.1029 F1800
G1 X97.191 Y111.572 Z0.224 E0.0417 F1800
G1 X95.328 Y109.709 Z0.224 E0.1619 F1800
G1 X95.328 Y109.030 Z0.224 E0.0417 F1800
G1 X97.870 Y111.572 Z0.224 E0.2209 F1800
G1 X98.549 Y111.572 Z0.224 E0.0417 F1800
G1 X95.328 Y108.351 Z0.224 E0.2799 F1800
G1 X95.328 Y107.673 Z0.224 E0.0417 F1800
G1 X99.227 Y111.572 Z0.224 E0.3390 F1800
G1 X99.906 Y111.572 Z0.224 E0.0417 F1800
G1 X95.328 Y106.994 Z0.224 E0.3980 F1800
G1 X95.328 Y106.315 Z0.224 E0.0417 F1800
G1 X100.585 Y111.572 Z0.224 E0.4570 F1800
G1 X101.264 Y111.572 Z0.224 E0.0417 F1800
G1 X95.328 Y105.636 Z0.224 E0.5160 F1800
G1 X95.328 Y104.957 Z0.224 E0.0417 F1800
G1 X101.943 Y111.572 Z0.224 E0.5750 F1800
G1 X102.621 Y111.572 Z0.224 E0.0417 F1800
G1 X95.328 Y104.279 Z0.224 E0.6340 F1800
G1 X95.328 Y103.600 Z0.224 E0.0417 F1800
G1 X103.300 Y111.572 Z0.224 E0.6930 F1800
G1 X103.979 Y111.572 Z0.224 E0.0417 F1800
G1 X95.328 Y102.921 Z0.224 E0.7520 F1800
G1 X95.328 Y102.242 Z0.224 E0.0417 F1800
G1 X104.658 Y111.572 Z0.224 E0.8110 F1800
G1 X105.337 Y111.572 Z0.224 E0.0417 F1800
G1 X95.328 Y101.563 Z0.224 E0.8700 F1800
G1 X95.328 Y100.884 Z0.224 E0.0417 F1800
G1 X106.016 Y111.572 Z0.224 E0.9290 F1800
G1 X106.694 Y111.572 Z0.224 E0.0417 F1800
G1 X95.328 Y100.206 Z0.224 E0.9880 F1800
G1 X95.328 Y99.527 Z0.224 E0.0417 F1800
G1 X107.373 Y111.572 Z0.224 E1.0470 F1800
G1 X108.052 Y111.572 Z0.224 E0.0417 F1800
G1 X95.328 Y98.848 Z0.224 E1.1060 F1800
G1 X95.328 Y98.169 Z0.224 E0.0417 F1800
G1 X108.731 Y111.572 Z0.224 E1.1650 F1800
G1 X109.410 Y111.572 Z0.224 E0.0417 F1800
G1 X95.328 Y97.490 Z0.224 E1.2240 F1800
G1 X95.328 Y96.811 Z0.224 E0.0417 F1800
G1 X110.089 Y111.572 Z0.224 E1.2830 F1800
G1 X110.767 Y111.572 Z0.224 E0.0417 F1800
G1 X95.328 Y96.133 Z0.224 E1.3421 F1800
G1 X95.328 Y95.454 Z0.224 E0.0417 F1800
G1 X111.446 Y111.572 Z0.224 E1.4011 F1800
G1 X112.125 Y111.572 Z0.224 E0.0417 F1800
G1 X95.328 Y94.775 Z0.224 E1.4601 F1800
G1 X95.328 Y94.096 Z0.224 E0.0417 F1800
G1 X112.804 Y111.572 Z0.224 E1.5191 F1800
G1 X113.483 Y111.572 Z0.224 E0.0417 F1800
G1 X95.328 Y93.417 Z0.224 E1.5781 F1800
G1 X95.328 Y92.739 Z0.224 E0.0417 F1800
G1 X114.161 Y111.572 Z0.224 E1.6371 F1800
G1 X114.840 Y111.572 Z0.224 E0.0417 F1800
G1 X95.328 Y92.060 Z0.224 E1.6961 F1800
G1 X95.328 Y91.381 Z0.224 E0.0417 F1800
G1 X115.519 Y111.572 Z0.224 E1.7551 F1800
G1 X116.198 Y111.572 Z0.224 E0.0417 F1800
G1 X95.328 Y90.702 Z0.224 E1.8141 F1800
G1 X95.328 Y90.023 Z0.224 E0.0417 F1800
G1 X116.877 Y111.572 Z0.224 E1.8731 F1800
G1 X117.556 Y111.572 Z0.224 E0.0417 F1800
G1 X95.328 Y89.344 Z0.224 E1.9321 F1800
G1 X95.328 Y88.666 Z0.224 E0.0417 F1800
G1 X118.234 Y111.572 Z0.224 E1.9911 F1800
G1 X118.913 Y111.572 Z0.224 E0.0417 F1800
G1 X95.769 Y88.428 Z0.224 E2.0118 F1800
G1 X96.448 Y88.428 Z0.224 E0.0417 F1800
G1 X119.592 Y111.572 Z0.224 E2.0118 F1800
G1 X120.271 Y111.572 Z0.224 E0.0417 F1800
G1 X97.127 Y88.428 Z0.224 E2.0118 F1800
G1 X97.806 Y88.428 Z0.224 E0.0417 F1800
G1 X120.950 Y111.572 Z0.224 E2.0118 F1800
G1 X121.629 Y111.572 Z0.224 E0.0417 F1800
G1 X98.485 Y88.428 Z0.224 E2.0118 F1800
G1 X99.163 Y88.428 Z0.224 E0.0417 F1800
G1 X122.307 Y111.572 Z0.224 E2.0118 F1800
