; G-Code generated by Simplify3D(R) Version 4.0.0
; Nov 2, 2022 at 1:12:04 PM
; Settings Summary
;   processName,Process1
;   applyToModels,20mm_endcaps,20mm_endcaps(2),1inch_endcap_withHole,1inch_endcap_withHole(2)
;   profileName,TPU White
;   profileVersion,2022-04-13 13:35:08
;   baseProfile,Default (modified)
;   printMaterial,PLA
;   printQuality,Medium
;   printExtruders,
;   extruderName,Primary Extruder
;   extruderToolheadNumber,0
;   extruderDiameter,0.4
;   extruderAutoWidth,1
;   extruderWidth,0.48
;   extrusionMultiplier,1.1
;   extruderUseRetract,1
;   extruderRetractionDistance,8
;   extruderExtraRestartDistance,0
;   extruderRetractionZLift,0
;   extruderRetractionSpeed,1200
;   extruderUseCoasting,1
;   extruderCoastingDistance,0.4
;   extruderUseWipe,0
;   extruderWipeDistance,1
;   primaryExtruder,0
;   layerHeight,0.28
;   topSolidLayers,3
;   bottomSolidLayers,3
;   perimeterOutlines,2
;   printPerimetersInsideOut,1
;   startPointOption,2
;   startPointOriginX,0
;   startPointOriginY,0
;   sequentialIslands,0
;   spiralVaseMode,0
;   firstLayerHeightPercentage,80
;   firstLayerWidthPercentage,100
;   firstLayerUnderspeed,0.75
;   useRaft,0
;   raftExtruder,0
;   raftTopLayers,3
;   raftBaseLayers,2
;   raftOffset,3
;   raftSeparationDistance,0.14
;   raftTopInfill,100
;   aboveRaftSpeedMultiplier,0.3
;   useSkirt,1
;   skirtExtruder,0
;   skirtLayers,1
;   skirtOutlines,2
;   skirtOffset,5
;   usePrimePillar,0
;   primePillarExtruder,999
;   primePillarWidth,12
;   primePillarLocation,7
;   primePillarSpeedMultiplier,1
;   useOozeShield,0
;   oozeShieldExtruder,999
;   oozeShieldOffset,2
;   oozeShieldOutlines,1
;   oozeShieldSidewallShape,1
;   oozeShieldSidewallAngle,30
;   oozeShieldSpeedMultiplier,1
;   infillExtruder,0
;   internalInfillPattern,Rectilinear
;   externalInfillPattern,Rectilinear
;   infillPercentage,40
;   outlineOverlapPercentage,15
;   infillExtrusionWidthPercentage,100
;   minInfillLength,5
;   infillLayerInterval,1
;   internalInfillAngles,45,-45
;   overlapInternalInfillAngles,0
;   externalInfillAngles,45,-45
;   generateSupport,0
;   supportExtruder,0
;   supportInfillPercentage,20
;   supportExtraInflation,0
;   supportBaseLayers,0
;   denseSupportExtruder,0
;   denseSupportLayers,0
;   denseSupportInfillPercentage,70
;   supportLayerInterval,1
;   supportHorizontalPartOffset,0.3
;   supportUpperSeparationLayers,1
;   supportLowerSeparationLayers,1
;   supportType,0
;   supportGridSpacing,4
;   maxOverhangAngle,30
;   supportAngles,0
;   temperatureName,Primary Extruder
;   temperatureNumber,0
;   temperatureSetpointCount,1
;   temperatureSetpointLayers,1
;   temperatureSetpointTemperatures,220
;   temperatureStabilizeAtStartup,1
;   temperatureHeatedBed,0
;   temperatureRelayBetweenLayers,0
;   temperatureRelayBetweenLoops,0
;   fanLayers,1
;   fanSpeeds,0
;   blipFanToFullPower,1
;   adjustSpeedForCooling,1
;   minSpeedLayerTime,15
;   minCoolingSpeedSlowdown,30
;   increaseFanForCooling,0
;   minFanLayerTime,45
;   maxCoolingFanSpeed,100
;   increaseFanForBridging,0
;   bridgingFanSpeed,100
;   use5D,1
;   relativeEdistances,1
;   allowEaxisZeroing,0
;   independentExtruderAxes,0
;   includeM10123,0
;   stickySupport,0
;   applyToolheadOffsets,0
;   gcodeXoffset,0
;   gcodeYoffset,0
;   gcodeZoffset,0
;   overrideMachineDefinition,0
;   machineTypeOverride,0
;   strokeXoverride,300
;   strokeYoverride,200
;   strokeZoverride,200
;   originOffsetXoverride,0
;   originOffsetYoverride,0
;   originOffsetZoverride,0
;   homeXdirOverride,-1
;   homeYdirOverride,1
;   homeZdirOverride,-1
;   flipXoverride,1
;   flipYoverride,-1
;   flipZoverride,1
;   toolheadOffsets,0,0|0,0|0,0|0,0|0,0|0,0
;   overrideFirmwareConfiguration,0
;   firmwareTypeOverride,RepRap (Marlin/Repetier/Sprinter)
;   GPXconfigOverride,r2
;   baudRateOverride,115200
;   overridePrinterModels,0
;   printerModelsOverride
;   startingGcode,G28 ; home all axes,G0 X150 Y100;,G0 Z5;
;   layerChangeGcode,
;   retractionGcode,
;   toolChangeGcode,
;   endingGcode,G0 X150 Y230.00;,,M300 S440 P200 ; play a tone,M300 S660 P250,M300 S880 P300,,M104 S0 ; turn off extruder,M140 S0 ; turn off bed,M84 ; disable motors
;   exportFileFormat,gcode
;   celebration,0
;   celebrationSong,Random Song
;   postProcessing,
;   defaultSpeed,3000
;   outlineUnderspeed,0.75
;   solidInfillUnderspeed,0.8
;   supportUnderspeed,0.8
;   rapidXYspeed,3600
;   rapidZspeed,42
;   minBridgingArea,50
;   bridgingExtraInflation,0
;   bridgingExtrusionMultiplier,1
;   bridgingSpeedMultiplier,1
;   useFixedBridgingAngle,0
;   fixedBridgingAngle,0
;   applyBridgingToPerimeters,0
;   filamentDiameters,1.75|1.75|1.75|1.75|1.75|1.75
;   filamentPricesPerKg,4400|46|46|46|46|46
;   filamentDensities,1.43|1.25|1.25|1.25|1.25|1.25
;   useMinPrintHeight,0
;   minPrintHeight,1
;   useMaxPrintHeight,0
;   maxPrintHeight,1
;   useDiaphragm,0
;   diaphragmLayerInterval,20
;   robustSlicing,1
;   mergeAllIntoSolid,0
;   onlyRetractWhenCrossingOutline,1
;   retractBetweenLayers,1
;   useRetractionMinTravel,1
;   retractionMinTravel,3
;   retractWhileWiping,0
;   onlyWipeOutlines,1
;   avoidCrossingOutline,1
;   maxMovementDetourFactor,3
;   toolChangeRetractionDistance,12
;   toolChangeExtraRestartDistance,-0.5
;   toolChangeRetractionSpeed,600
;   externalThinWallType,0
;   internalThinWallType,1
;   thinWallAllowedOverlapPercentage,10
;   singleExtrusionMinLength,1
;   singleExtrusionMinPrintingWidthPercentage,50
;   singleExtrusionMaxPrintingWidthPercentage,200
;   singleExtrusionEndpointExtension,0.2
;   horizontalSizeCompensation,0
G90
M83
M106 S255
G4 P500
M106 S0
M104 S220 T0
M109 S220 T0
G28 ; home all axes
G0 X150 Y100;
G0 Z5;
G1 X0.000 Y0.000 Z0.000 E-8.0000 F1200
G1 X0.000 Y0.000 Z0.224 F42
; process Process1
; layer 1, Z = 0.224
T0
; tool H0.280 W0.480
; skirt
G1 X22.858 Y88.758 Z0.224 F3600
G1 X22.858 Y88.758 Z0.224 E8.0000 F360
G1 X52.686 Y88.758 Z0.224 E1.8334 F2250
G1 X52.951 Y88.868 Z0.224 E0.0176 F2250
G1 X52.972 Y88.889 Z0.224 E0.0018 F2250
G1 X52.993 Y88.868 Z0.224 E0.0018 F2250
G1 X53.258 Y88.758 Z0.224 E0.0176 F2250
G1 X83.086 Y88.758 Z0.224 E1.8334 F2250
G1 X83.351 Y88.868 Z0.224 E0.0176 F2250
G1 X86.482 Y91.999 Z0.224 E0.2722 F2250
G1 X86.592 Y92.264 Z0.224 E0.0176 F2250
G1 X86.592 Y122.093 Z0.224 E1.8334 F2250
G1 X86.482 Y122.357 Z0.224 E0.0176 F2250
G1 X83.351 Y125.489 Z0.224 E0.2722 F2250
G1 X83.086 Y125.598 Z0.224 E0.0176 F2250
G1 X69.792 Y125.598 Z0.224 E0.8171 F2250
G1 X69.792 Y144.093 Z0.224 E1.1367 F2250
G1 X69.682 Y144.357 Z0.224 E0.0176 F2250
G1 X66.551 Y147.489 Z0.224 E0.2722 F2250
G1 X66.286 Y147.598 Z0.224 E0.0176 F2250
G1 X44.858 Y147.598 Z0.224 E1.3171 F2250
G1 X44.593 Y147.489 Z0.224 E0.0176 F2250
G1 X44.572 Y147.468 Z0.224 E0.0018 F2250
G1 X44.551 Y147.489 Z0.224 E0.0018 F2250
G1 X44.286 Y147.598 Z0.224 E0.0176 F2250
G1 X22.858 Y147.598 Z0.224 E1.3171 F2250
G1 X22.593 Y147.489 Z0.224 E0.0176 F2250
G1 X19.462 Y144.357 Z0.224 E0.2722 F2250
G1 X19.352 Y144.093 Z0.224 E0.0176 F2250
G1 X19.352 Y122.664 Z0.224 E1.3171 F2250
G1 X19.462 Y122.399 Z0.224 E0.0176 F2250
G1 X19.483 Y122.378 Z0.224 E0.0018 F2250
G1 X19.462 Y122.357 Z0.224 E0.0018 F2250
G1 X19.352 Y122.093 Z0.224 E0.0176 F2250
G1 X19.352 Y92.264 Z0.224 E1.8334 F2250
G1 X19.462 Y91.999 Z0.224 E0.0176 F2250
G1 X22.513 Y88.948 Z0.224 E0.2652 F2250
G1 X22.593 Y88.868 Z0.224 F2250
G1 X22.858 Y88.758 Z0.224 F2250
G1 X22.953 Y89.238 Z0.224 F3600
G1 X52.591 Y89.238 Z0.224 E1.8217 F2250
G1 X52.679 Y89.275 Z0.224 E0.0059 F2250
G1 X52.972 Y89.568 Z0.224 E0.0255 F2250
G1 X53.265 Y89.275 Z0.224 E0.0255 F2250
G1 X53.353 Y89.238 Z0.224 E0.0059 F2250
G1 X82.991 Y89.238 Z0.224 E1.8217 F2250
G1 X83.079 Y89.275 Z0.224 E0.0059 F2250
G1 X86.075 Y92.271 Z0.224 E0.2605 F2250
G1 X86.112 Y92.359 Z0.224 E0.0059 F2250
G1 X86.112 Y121.997 Z0.224 E1.8217 F2250
G1 X86.075 Y122.085 Z0.224 E0.0059 F2250
G1 X83.079 Y125.082 Z0.224 E0.2605 F2250
G1 X82.991 Y125.118 Z0.224 E0.0059 F2250
G1 X69.312 Y125.118 Z0.224 E0.8408 F2250
G1 X69.312 Y143.997 Z0.224 E1.1604 F2250
G1 X69.275 Y144.085 Z0.224 E0.0059 F2250
G1 X66.279 Y147.082 Z0.224 E0.2605 F2250
G1 X66.191 Y147.118 Z0.224 E0.0059 F2250
G1 X44.953 Y147.118 Z0.224 E1.3054 F2250
G1 X44.865 Y147.082 Z0.224 E0.0059 F2250
G1 X44.572 Y146.789 Z0.224 E0.0255 F2250
G1 X44.279 Y147.082 Z0.224 E0.0255 F2250
G1 X44.191 Y147.118 Z0.224 E0.0059 F2250
G1 X22.953 Y147.118 Z0.224 E1.3054 F2250
G1 X22.865 Y147.082 Z0.224 E0.0059 F2250
G1 X19.869 Y144.085 Z0.224 E0.2605 F2250
G1 X19.832 Y143.997 Z0.224 E0.0059 F2250
G1 X19.832 Y122.759 Z0.224 E1.3054 F2250
G1 X19.869 Y122.671 Z0.224 E0.0059 F2250
G1 X20.161 Y122.378 Z0.224 E0.0255 F2250
G1 X19.869 Y122.085 Z0.224 E0.0255 F2250
G1 X19.832 Y121.997 Z0.224 E0.0059 F2250
G1 X19.832 Y92.359 Z0.224 E1.8217 F2250
G1 X19.869 Y92.271 Z0.224 E0.0059 F2250
G1 X22.650 Y89.490 Z0.224 E0.2417 F2250
G1 X22.865 Y89.275 Z0.224 F2250
G1 X22.953 Y89.238 Z0.224 F2250
G1 X22.953 Y89.238 Z0.224 E-8.0000 F1200
; inner perimeter
G1 X25.307 Y94.713 Z0.224 F3600
G1 X25.561 Y94.713 Z0.224 F3600
G1 X25.792 Y95.198 Z0.224 F3600
G1 X25.792 Y95.198 Z0.224 E8.0000 F1200
G1 X49.752 Y95.198 Z0.224 E1.4727 F1969
G1 X49.752 Y119.158 Z0.224 E1.4727 F1969
G1 X25.792 Y119.158 Z0.224 E1.4727 F1969
G1 X25.792 Y109.698 Z0.224 E0.5815 F1969
G1 X28.337 Y109.698 Z0.224 E0.1565 F1969
G1 X28.528 Y109.893 Z0.224 E0.0167 F1969
G1 X28.771 Y110.101 Z0.224 E0.0197 F1969
G1 X29.031 Y110.289 Z0.224 E0.0197 F1969
G1 X29.306 Y110.453 Z0.224 E0.0197 F1969
G1 X29.594 Y110.592 Z0.224 E0.0197 F1969
G1 X29.893 Y110.707 Z0.224 E0.0197 F1969
G1 X30.201 Y110.795 Z0.224 E0.0197 F1969
G1 X30.516 Y110.857 Z0.224 E0.0197 F1969
G1 X30.834 Y110.891 Z0.224 E0.0197 F1969
G1 X31.154 Y110.898 Z0.224 E0.0197 F1969
G1 X31.474 Y110.877 Z0.224 E0.0197 F1969
G1 X31.791 Y110.829 Z0.224 E0.0197 F1969
G1 X32.102 Y110.753 Z0.224 E0.0197 F1969
G1 X32.406 Y110.651 Z0.224 E0.0197 F1969
G1 X32.700 Y110.524 Z0.224 E0.0197 F1969
G1 X32.982 Y110.371 Z0.224 E0.0197 F1969
G1 X33.249 Y110.195 Z0.224 E0.0197 F1969
G1 X33.501 Y109.996 Z0.224 E0.0197 F1969
G1 X33.734 Y109.777 Z0.224 E0.0197 F1969
G1 X33.948 Y109.538 Z0.224 E0.0197 F1969
G1 X34.140 Y109.282 Z0.224 E0.0197 F1969
G1 X34.310 Y109.010 Z0.224 E0.0197 F1969
G1 X34.456 Y108.725 Z0.224 E0.0197 F1969
G1 X34.576 Y108.428 Z0.224 E0.0197 F1969
G1 X34.671 Y108.122 Z0.224 E0.0197 F1969
G1 X34.739 Y107.809 Z0.224 E0.0197 F1969
G1 X34.779 Y107.491 Z0.224 E0.0197 F1969
G1 X34.792 Y107.171 Z0.224 E0.0197 F1969
G1 X34.778 Y106.851 Z0.224 E0.0197 F1969
G1 X34.736 Y106.533 Z0.224 E0.0197 F1969
G1 X34.667 Y106.220 Z0.224 E0.0197 F1969
G1 X34.571 Y105.915 Z0.224 E0.0197 F1969
G1 X34.450 Y105.618 Z0.224 E0.0197 F1969
G1 X34.303 Y105.333 Z0.224 E0.0197 F1969
G1 X34.132 Y105.063 Z0.224 E0.0197 F1969
G1 X33.939 Y104.807 Z0.224 E0.0197 F1969
G1 X33.724 Y104.569 Z0.224 E0.0197 F1969
G1 X33.490 Y104.351 Z0.224 E0.0197 F1969
G1 X33.238 Y104.153 Z0.224 E0.0197 F1969
G1 X32.969 Y103.978 Z0.224 E0.0197 F1969
G1 X32.687 Y103.827 Z0.224 E0.0197 F1969
G1 X32.393 Y103.700 Z0.224 E0.0197 F1969
G1 X32.089 Y103.599 Z0.224 E0.0197 F1969
G1 X31.777 Y103.525 Z0.224 E0.0197 F1969
G1 X31.460 Y103.478 Z0.224 E0.0197 F1969
G1 X31.140 Y103.458 Z0.224 E0.0197 F1969
G1 X30.820 Y103.466 Z0.224 E0.0197 F1969
G1 X30.501 Y103.502 Z0.224 E0.0197 F1969
G1 X30.187 Y103.565 Z0.224 E0.0197 F1969
G1 X29.880 Y103.654 Z0.224 E0.0197 F1969
G1 X29.581 Y103.770 Z0.224 E0.0197 F1969
G1 X29.293 Y103.911 Z0.224 E0.0197 F1969
G1 X29.019 Y104.076 Z0.224 E0.0197 F1969
G1 X28.759 Y104.264 Z0.224 E0.0197 F1969
G1 X28.517 Y104.474 Z0.224 E0.0197 F1969
G1 X28.338 Y104.658 Z0.224 E0.0158 F1969
G1 X25.792 Y104.658 Z0.224 E0.1565 F1969
G1 X25.792 Y95.598 Z0.224 E0.5569 F1969
G1 X25.792 Y95.198 Z0.224 F1969
; outer perimeter
G1 X25.312 Y94.718 Z0.224 F3600
G1 X50.232 Y94.718 Z0.224 E1.5317 F1688
G1 X50.232 Y119.638 Z0.224 E1.5317 F1688
G1 X25.312 Y119.638 Z0.224 E1.5317 F1688
G1 X25.312 Y109.218 Z0.224 E0.6405 F1688
G1 X28.559 Y109.218 Z0.224 E0.1996 F1688
G1 X28.661 Y109.343 Z0.224 E0.0099 F1688
G1 X28.856 Y109.542 Z0.224 E0.0171 F1688
G1 X29.068 Y109.724 Z0.224 E0.0171 F1688
G1 X29.294 Y109.887 Z0.224 E0.0171 F1688
G1 X29.534 Y110.030 Z0.224 E0.0171 F1688
G1 X29.785 Y110.152 Z0.224 E0.0171 F1688
G1 X30.045 Y110.251 Z0.224 E0.0171 F1688
G1 X30.314 Y110.328 Z0.224 E0.0171 F1688
G1 X30.587 Y110.382 Z0.224 E0.0171 F1688
G1 X30.865 Y110.412 Z0.224 E0.0171 F1688
G1 X31.144 Y110.417 Z0.224 E0.0171 F1688
G1 X31.422 Y110.399 Z0.224 E0.0171 F1688
G1 X31.698 Y110.357 Z0.224 E0.0171 F1688
G1 X31.969 Y110.291 Z0.224 E0.0171 F1688
G1 X32.234 Y110.203 Z0.224 E0.0171 F1688
G1 X32.490 Y110.092 Z0.224 E0.0171 F1688
G1 X32.735 Y109.959 Z0.224 E0.0171 F1688
G1 X32.968 Y109.805 Z0.224 E0.0172 F1688
G1 X33.187 Y109.633 Z0.224 E0.0171 F1688
G1 X33.390 Y109.441 Z0.224 E0.0171 F1688
G1 X33.577 Y109.234 Z0.224 E0.0171 F1688
G1 X33.744 Y109.010 Z0.224 E0.0171 F1688
G1 X33.892 Y108.774 Z0.224 E0.0171 F1688
G1 X34.019 Y108.525 Z0.224 E0.0171 F1688
G1 X34.124 Y108.267 Z0.224 E0.0172 F1688
G1 X34.206 Y108.000 Z0.224 E0.0171 F1688
G1 X34.265 Y107.728 Z0.224 E0.0171 F1688
G1 X34.300 Y107.451 Z0.224 E0.0171 F1688
G1 X34.312 Y107.172 Z0.224 E0.0172 F1688
G1 X34.299 Y106.893 Z0.224 E0.0171 F1688
G1 X34.263 Y106.617 Z0.224 E0.0171 F1688
G1 X34.203 Y106.344 Z0.224 E0.0171 F1688
G1 X34.119 Y106.078 Z0.224 E0.0171 F1688
G1 X34.013 Y105.820 Z0.224 E0.0171 F1688
G1 X33.886 Y105.572 Z0.224 E0.0171 F1688
G1 X33.737 Y105.336 Z0.224 E0.0171 F1688
G1 X33.569 Y105.113 Z0.224 E0.0171 F1688
G1 X33.382 Y104.906 Z0.224 E0.0171 F1688
G1 X33.178 Y104.716 Z0.224 E0.0171 F1688
G1 X32.958 Y104.544 Z0.224 E0.0171 F1688
G1 X32.724 Y104.391 Z0.224 E0.0171 F1688
G1 X32.478 Y104.259 Z0.224 E0.0171 F1688
G1 X32.222 Y104.149 Z0.224 E0.0171 F1688
G1 X31.957 Y104.062 Z0.224 E0.0171 F1688
G1 X31.686 Y103.997 Z0.224 E0.0171 F1688
G1 X31.410 Y103.956 Z0.224 E0.0171 F1688
G1 X31.131 Y103.939 Z0.224 E0.0171 F1688
G1 X30.852 Y103.946 Z0.224 E0.0171 F1688
G1 X30.575 Y103.977 Z0.224 E0.0171 F1688
G1 X30.302 Y104.031 Z0.224 E0.0171 F1688
G1 X30.034 Y104.109 Z0.224 E0.0171 F1688
G1 X29.773 Y104.210 Z0.224 E0.0172 F1688
G1 X29.523 Y104.333 Z0.224 E0.0171 F1688
G1 X29.284 Y104.476 Z0.224 E0.0171 F1688
G1 X29.058 Y104.640 Z0.224 E0.0171 F1688
G1 X28.847 Y104.823 Z0.224 E0.0171 F1688
G1 X28.653 Y105.023 Z0.224 E0.0171 F1688
G1 X28.558 Y105.138 Z0.224 E0.0092 F1688
G1 X25.312 Y105.138 Z0.224 E0.1995 F1688
G1 X25.312 Y95.118 Z0.224 E0.6159 F1688
G1 X25.312 Y94.718 Z0.224 F1688
; solid layer
G1 X26.200 Y103.625 Z0.224 F3600
G1 X26.825 Y104.250 Z0.224 E0.0543 F1800
G1 X27.504 Y104.250 Z0.224 E0.0417 F1800
G1 X26.200 Y102.946 Z0.224 E0.1134 F1800
G1 X26.200 Y102.267 Z0.224 E0.0417 F1800
G1 X28.174 Y104.241 Z0.224 E0.1716 F1800
G1 X28.237 Y104.177 Z0.224 E0.0055 F1800
G1 X28.506 Y103.944 Z0.224 E0.0219 F1800
G1 X28.534 Y103.923 Z0.224 E0.0022 F1800
G1 X26.200 Y101.589 Z0.224 E0.2029 F1800
G1 X26.200 Y100.910 Z0.224 E0.0417 F1800
G1 X28.938 Y103.648 Z0.224 E0.2380 F1800
G1 X29.098 Y103.552 Z0.224 E0.0114 F1800
G1 X29.382 Y103.413 Z0.224 E0.0194 F1800
G1 X26.200 Y100.231 Z0.224 E0.2766 F1800
G1 X26.200 Y99.552 Z0.224 E0.0417 F1800
G1 X29.878 Y103.230 Z0.224 E0.3197 F1800
G1 X30.090 Y103.168 Z0.224 E0.0136 F1800
G1 X30.427 Y103.101 Z0.224 E0.0211 F1800
G1 X26.200 Y98.873 Z0.224 E0.3675 F1800
G1 X26.200 Y98.194 Z0.224 E0.0417 F1800
G1 X31.058 Y103.052 Z0.224 E0.4223 F1800
G1 X31.148 Y103.050 Z0.224 E0.0055 F1800
G1 X31.503 Y103.072 Z0.224 E0.0219 F1800
G1 X31.801 Y103.116 Z0.224 E0.0185 F1800
G1 X26.200 Y97.516 Z0.224 E0.4868 F1800
G1 X26.200 Y96.837 Z0.224 E0.0417 F1800
G1 X32.790 Y103.427 Z0.224 E0.5728 F1800
G1 X32.864 Y103.459 Z0.224 E0.0050 F1800
G1 X33.178 Y103.627 Z0.224 E0.0219 F1800
G1 X33.475 Y103.821 Z0.224 E0.0219 F1800
G1 X33.755 Y104.040 Z0.224 E0.0219 F1800
G1 X34.015 Y104.283 Z0.224 E0.0219 F1800
G1 X34.254 Y104.547 Z0.224 E0.0218 F1800
G1 X34.468 Y104.830 Z0.224 E0.0219 F1800
G1 X34.658 Y105.131 Z0.224 E0.0218 F1800
G1 X34.820 Y105.447 Z0.224 E0.0219 F1800
