; G-Code generated by Simplify3D(R) Version 4.0.0
; Nov 2, 2022 at 1:00:42 PM
; Settings Summary
;   processName,Process1
;   applyToModels,FlexibleWasher_M8,FlexibleWasher_M6,FlexibleWasher_M6(2),FlexibleWasher_M6(3),FlexibleWasher_M6(4),FlexibleWasher_M8(2),FlexibleWasher_M8(3),FlexibleWasher_M8(4),FlexibleWasher_M6(4)(2),FlexibleWasher_M6(4)(3)
;   profileName,TPU White (modified)
;   profileVersion,2022-04-13 13:35:08
;   baseProfile,Default (modified)
;   printMaterial,PLA
;   printQuality,Medium
;   printExtruders,
;   extruderName,Primary Extruder
;   extruderToolheadNumber,0
;   extruderDiameter,0.4
;   extruderAutoWidth,1
;   extruderWidth,0.48
;   extrusionMultiplier,1.1
;   extruderUseRetract,1
;   extruderRetractionDistance,8
;   extruderExtraRestartDistance,0
;   extruderRetractionZLift,0
;   extruderRetractionSpeed,1200
;   extruderUseCoasting,1
;   extruderCoastingDistance,0.4
;   extruderUseWipe,0
;   extruderWipeDistance,1
;   primaryExtruder,0
;   layerHeight,0.1
;   topSolidLayers,3
;   bottomSolidLayers,3
;   perimeterOutlines,2
;   printPerimetersInsideOut,1
;   startPointOption,2
;   startPointOriginX,0
;   startPointOriginY,0
;   sequentialIslands,0
;   spiralVaseMode,0
;   firstLayerHeightPercentage,80
;   firstLayerWidthPercentage,100
;   firstLayerUnderspeed,0.75
;   useRaft,0
;   raftExtruder,0
;   raftTopLayers,3
;   raftBaseLayers,2
;   raftOffset,3
;   raftSeparationDistance,0.14
;   raftTopInfill,100
;   aboveRaftSpeedMultiplier,0.3
;   useSkirt,1
;   skirtExtruder,0
;   skirtLayers,1
;   skirtOutlines,4
;   skirtOffset,5
;   usePrimePillar,0
;   primePillarExtruder,999
;   primePillarWidth,12
;   primePillarLocation,7
;   primePillarSpeedMultiplier,1
;   useOozeShield,0
;   oozeShieldExtruder,999
;   oozeShieldOffset,2
;   oozeShieldOutlines,1
;   oozeShieldSidewallShape,1
;   oozeShieldSidewallAngle,30
;   oozeShieldSpeedMultiplier,1
;   infillExtruder,0
;   internalInfillPattern,Rectilinear
;   externalInfillPattern,Rectilinear
;   infillPercentage,100
;   outlineOverlapPercentage,15
;   infillExtrusionWidthPercentage,100
;   minInfillLength,5
;   infillLayerInterval,1
;   internalInfillAngles,45,-45
;   overlapInternalInfillAngles,0
;   externalInfillAngles,45,-45
;   generateSupport,0
;   supportExtruder,0
;   supportInfillPercentage,20
;   supportExtraInflation,0
;   supportBaseLayers,0
;   denseSupportExtruder,0
;   denseSupportLayers,0
;   denseSupportInfillPercentage,70
;   supportLayerInterval,1
;   supportHorizontalPartOffset,0.3
;   supportUpperSeparationLayers,1
;   supportLowerSeparationLayers,1
;   supportType,0
;   supportGridSpacing,4
;   maxOverhangAngle,30
;   supportAngles,0
;   temperatureName,Primary Extruder
;   temperatureNumber,0
;   temperatureSetpointCount,1
;   temperatureSetpointLayers,1
;   temperatureSetpointTemperatures,220
;   temperatureStabilizeAtStartup,1
;   temperatureHeatedBed,0
;   temperatureRelayBetweenLayers,0
;   temperatureRelayBetweenLoops,0
;   fanLayers,1
;   fanSpeeds,0
;   blipFanToFullPower,1
;   adjustSpeedForCooling,1
;   minSpeedLayerTime,15
;   minCoolingSpeedSlowdown,30
;   increaseFanForCooling,0
;   minFanLayerTime,45
;   maxCoolingFanSpeed,100
;   increaseFanForBridging,0
;   bridgingFanSpeed,100
;   use5D,1
;   relativeEdistances,1
;   allowEaxisZeroing,0
;   independentExtruderAxes,0
;   includeM10123,0
;   stickySupport,0
;   applyToolheadOffsets,0
;   gcodeXoffset,0
;   gcodeYoffset,0
;   gcodeZoffset,0
;   overrideMachineDefinition,0
;   machineTypeOverride,0
;   strokeXoverride,300
;   strokeYoverride,190
;   strokeZoverride,200
;   originOffsetXoverride,0
;   originOffsetYoverride,0
;   originOffsetZoverride,0
;   homeXdirOverride,-1
;   homeYdirOverride,1
;   homeZdirOverride,-1
;   flipXoverride,1
;   flipYoverride,-1
;   flipZoverride,1
;   toolheadOffsets,0,0|0,0|0,0|0,0|0,0|0,0
;   overrideFirmwareConfiguration,0
;   firmwareTypeOverride,RepRap (Marlin/Repetier/Sprinter)
;   GPXconfigOverride,r2
;   baudRateOverride,115200
;   overridePrinterModels,0
;   printerModelsOverride
;   startingGcode,G28 ; home all axes,G0 X150 Y100;,G0 Z5;
;   layerChangeGcode,
;   retractionGcode,
;   toolChangeGcode,
;   endingGcode,G0 X150 Y230.00;,,M300 S440 P200 ; play a tone,M300 S660 P250,M300 S880 P300,,M104 S0 ; turn off extruder,M140 S0 ; turn off bed,M84 ; disable motors
;   exportFileFormat,gcode
;   celebration,0
;   celebrationSong,Random Song
;   postProcessing,
;   defaultSpeed,3000
;   outlineUnderspeed,0.75
;   solidInfillUnderspeed,0.8
;   supportUnderspeed,0.8
;   rapidXYspeed,3600
;   rapidZspeed,42
;   minBridgingArea,50
;   bridgingExtraInflation,0
;   bridgingExtrusionMultiplier,1
;   bridgingSpeedMultiplier,1
;   useFixedBridgingAngle,0
;   fixedBridgingAngle,0
;   applyBridgingToPerimeters,0
;   filamentDiameters,1.75|1.75|1.75|1.75|1.75|1.75
;   filamentPricesPerKg,4400|46|46|46|46|46
;   filamentDensities,1.43|1.25|1.25|1.25|1.25|1.25
;   useMinPrintHeight,0
;   minPrintHeight,1
;   useMaxPrintHeight,0
;   maxPrintHeight,1
;   useDiaphragm,0
;   diaphragmLayerInterval,20
;   robustSlicing,1
;   mergeAllIntoSolid,0
;   onlyRetractWhenCrossingOutline,1
;   retractBetweenLayers,1
;   useRetractionMinTravel,1
;   retractionMinTravel,3
;   retractWhileWiping,0
;   onlyWipeOutlines,1
;   avoidCrossingOutline,1
;   maxMovementDetourFactor,3
;   toolChangeRetractionDistance,12
;   toolChangeExtraRestartDistance,-0.5
;   toolChangeRetractionSpeed,600
;   externalThinWallType,0
;   internalThinWallType,1
;   thinWallAllowedOverlapPercentage,10
;   singleExtrusionMinLength,1
;   singleExtrusionMinPrintingWidthPercentage,50
;   singleExtrusionMaxPrintingWidthPercentage,200
;   singleExtrusionEndpointExtension,0.2
;   horizontalSizeCompensation,0
G90
M83
M106 S255
G4 P500
M106 S0
M104 S220 T0
M109 S220 T0
G28 ; home all axes
G0 X150 Y100;
G0 Z5;
G1 X0.000 Y0.000 Z0.000 E-8.0000 F1200
G1 X0.000 Y0.000 Z0.080 F42
; process Process1
; layer 1, Z = 0.080
T0
; tool H0.100 W0.480
; skirt
G1 X30.931 Y90.165 Z0.080 F3600
G1 X30.931 Y90.165 Z0.080 E8.0000 F360
G1 X31.177 Y90.099 Z0.080 E0.0056 F2250
G1 X31.213 Y90.091 Z0.080 E0.0008 F2250
G1 X32.100 Y89.894 Z0.080 E0.0200 F2250
G1 X32.136 Y89.887 Z0.080 E0.0008 F2250
G1 X32.387 Y89.842 Z0.080 E0.0056 F2250
G1 X32.424 Y89.837 Z0.080 E0.0008 F2250
G1 X33.325 Y89.718 Z0.080 E0.0200 F2250
G1 X33.361 Y89.714 Z0.080 E0.0008 F2250
G1 X33.615 Y89.692 Z0.080 E0.0056 F2250
G1 X33.652 Y89.690 Z0.080 E0.0008 F2250
G1 X34.560 Y89.650 Z0.080 E0.0200 F2250
G1 X34.597 Y89.649 Z0.080 E0.0008 F2250
G1 X34.852 Y89.649 Z0.080 E0.0056 F2250
G1 X34.888 Y89.650 Z0.080 E0.0008 F2250
G1 X35.797 Y89.690 Z0.080 E0.0200 F2250
G1 X35.833 Y89.692 Z0.080 E0.0008 F2250
G1 X36.087 Y89.714 Z0.080 E0.0056 F2250
G1 X36.124 Y89.718 Z0.080 E0.0008 F2250
G1 X37.025 Y89.837 Z0.080 E0.0200 F2250
G1 X37.061 Y89.842 Z0.080 E0.0008 F2250
G1 X37.312 Y89.887 Z0.080 E0.0056 F2250
G1 X37.348 Y89.894 Z0.080 E0.0008 F2250
G1 X38.236 Y90.091 Z0.080 E0.0200 F2250
G1 X38.271 Y90.099 Z0.080 E0.0008 F2250
G1 X38.517 Y90.165 Z0.080 E0.0056 F2250
G1 X38.553 Y90.175 Z0.080 E0.0008 F2250
G1 X39.420 Y90.449 Z0.080 E0.0200 F2250
G1 X39.454 Y90.461 Z0.080 E0.0008 F2250
G1 X39.694 Y90.548 Z0.080 E0.0056 F2250
G1 X39.728 Y90.561 Z0.080 E0.0008 F2250
G1 X40.568 Y90.909 Z0.080 E0.0200 F2250
G1 X40.601 Y90.924 Z0.080 E0.0008 F2250
G1 X40.832 Y91.031 Z0.080 E0.0056 F2250
G1 X40.865 Y91.048 Z0.080 E0.0008 F2250
G1 X41.672 Y91.468 Z0.080 E0.0200 F2250
G1 X41.704 Y91.485 Z0.080 E0.0008 F2250
G1 X41.925 Y91.613 Z0.080 E0.0056 F2250
G1 X41.956 Y91.632 Z0.080 E0.0008 F2250
G1 X42.723 Y92.120 Z0.080 E0.0200 F2250
G1 X42.753 Y92.140 Z0.080 E0.0008 F2250
G1 X42.962 Y92.287 Z0.080 E0.0056 F2250
G1 X42.992 Y92.308 Z0.080 E0.0008 F2250
G1 X43.713 Y92.862 Z0.080 E0.0200 F2250
G1 X43.741 Y92.885 Z0.080 E0.0008 F2250
G1 X43.937 Y93.048 Z0.080 E0.0056 F2250
G1 X43.964 Y93.073 Z0.080 E0.0008 F2250
G1 X44.634 Y93.687 Z0.080 E0.0200 F2250
G1 X44.661 Y93.712 Z0.080 E0.0008 F2250
G1 X44.724 Y93.776 Z0.080 E0.0020 F2250
G1 X44.788 Y93.712 Z0.080 E0.0020 F2250
G1 X44.814 Y93.687 Z0.080 E0.0008 F2250
G1 X45.484 Y93.073 Z0.080 E0.0200 F2250
G1 X45.512 Y93.048 Z0.080 E0.0008 F2250
G1 X45.707 Y92.885 Z0.080 E0.0056 F2250
G1 X45.736 Y92.862 Z0.080 E0.0008 F2250
G1 X46.457 Y92.308 Z0.080 E0.0200 F2250
G1 X46.487 Y92.287 Z0.080 E0.0008 F2250
G1 X46.695 Y92.140 Z0.080 E0.0056 F2250
G1 X46.726 Y92.120 Z0.080 E0.0008 F2250
G1 X47.492 Y91.632 Z0.080 E0.0200 F2250
G1 X47.524 Y91.613 Z0.080 E0.0008 F2250
G1 X47.745 Y91.485 Z0.080 E0.0056 F2250
G1 X47.777 Y91.468 Z0.080 E0.0008 F2250
G1 X48.583 Y91.048 Z0.080 E0.0200 F2250
G1 X48.616 Y91.031 Z0.080 E0.0008 F2250
G1 X48.847 Y90.924 Z0.080 E0.0056 F2250
G1 X48.881 Y90.909 Z0.080 E0.0008 F2250
G1 X49.720 Y90.561 Z0.080 E0.0200 F2250
G1 X49.755 Y90.548 Z0.080 E0.0008 F2250
G1 X49.994 Y90.461 Z0.080 E0.0056 F2250
G1 X50.029 Y90.449 Z0.080 E0.0008 F2250
G1 X50.896 Y90.175 Z0.080 E0.0200 F2250
G1 X50.931 Y90.165 Z0.080 E0.0008 F2250
G1 X51.177 Y90.099 Z0.080 E0.0056 F2250
G1 X51.213 Y90.091 Z0.080 E0.0008 F2250
G1 X52.100 Y89.894 Z0.080 E0.0200 F2250
G1 X52.136 Y89.887 Z0.080 E0.0008 F2250
G1 X52.387 Y89.842 Z0.080 E0.0056 F2250
G1 X52.424 Y89.837 Z0.080 E0.0008 F2250
G1 X53.325 Y89.718 Z0.080 E0.0200 F2250
G1 X53.361 Y89.714 Z0.080 E0.0008 F2250
G1 X53.615 Y89.692 Z0.080 E0.0056 F2250
G1 X53.652 Y89.690 Z0.080 E0.0008 F2250
G1 X54.560 Y89.650 Z0.080 E0.0200 F2250
G1 X54.597 Y89.649 Z0.080 E0.0008 F2250
G1 X54.852 Y89.649 Z0.080 E0.0056 F2250
G1 X54.888 Y89.650 Z0.080 E0.0008 F2250
G1 X55.797 Y89.690 Z0.080 E0.0200 F2250
G1 X55.833 Y89.692 Z0.080 E0.0008 F2250
G1 X56.087 Y89.714 Z0.080 E0.0056 F2250
G1 X56.124 Y89.718 Z0.080 E0.0008 F2250
G1 X57.025 Y89.837 Z0.080 E0.0200 F2250
G1 X57.061 Y89.842 Z0.080 E0.0008 F2250
G1 X57.312 Y89.887 Z0.080 E0.0056 F2250
G1 X57.348 Y89.894 Z0.080 E0.0008 F2250
G1 X58.236 Y90.091 Z0.080 E0.0200 F2250
G1 X58.271 Y90.099 Z0.080 E0.0008 F2250
G1 X58.517 Y90.165 Z0.080 E0.0056 F2250
G1 X58.553 Y90.175 Z0.080 E0.0008 F2250
G1 X59.420 Y90.449 Z0.080 E0.0200 F2250
G1 X59.454 Y90.461 Z0.080 E0.0008 F2250
G1 X59.694 Y90.548 Z0.080 E0.0056 F2250
G1 X59.728 Y90.561 Z0.080 E0.0008 F2250
G1 X60.568 Y90.909 Z0.080 E0.0200 F2250
G1 X60.601 Y90.924 Z0.080 E0.0008 F2250
G1 X60.832 Y91.031 Z0.080 E0.0056 F2250
G1 X60.865 Y91.048 Z0.080 E0.0008 F2250
G1 X61.672 Y91.468 Z0.080 E0.0200 F2250
G1 X61.704 Y91.485 Z0.080 E0.0008 F2250
G1 X61.925 Y91.613 Z0.080 E0.0056 F2250
G1 X61.956 Y91.632 Z0.080 E0.0008 F2250
G1 X62.723 Y92.120 Z0.080 E0.0200 F2250
G1 X62.753 Y92.140 Z0.080 E0.0008 F2250
G1 X62.962 Y92.287 Z0.080 E0.0056 F2250
G1 X62.991 Y92.308 Z0.080 E0.0008 F2250
G1 X63.713 Y92.862 Z0.080 E0.0200 F2250
G1 X63.741 Y92.885 Z0.080 E0.0008 F2250
G1 X63.937 Y93.048 Z0.080 E0.0056 F2250
G1 X63.964 Y93.073 Z0.080 E0.0008 F2250
G1 X64.634 Y93.687 Z0.080 E0.0200 F2250
G1 X64.661 Y93.712 Z0.080 E0.0008 F2250
G1 X64.724 Y93.776 Z0.080 E0.0020 F2250
G1 X64.788 Y93.712 Z0.080 E0.0020 F2250
G1 X64.814 Y93.687 Z0.080 E0.0008 F2250
G1 X65.484 Y93.073 Z0.080 E0.0200 F2250
G1 X65.512 Y93.048 Z0.080 E0.0008 F2250
G1 X65.707 Y92.885 Z0.080 E0.0056 F2250
G1 X65.736 Y92.862 Z0.080 E0.0008 F2250
G1 X66.457 Y92.308 Z0.080 E0.0200 F2250
G1 X66.487 Y92.287 Z0.080 E0.0008 F2250
G1 X66.695 Y92.140 Z0.080 E0.0056 F2250
G1 X66.726 Y92.120 Z0.080 E0.0008 F2250
G1 X67.493 Y91.632 Z0.080 E0.0200 F2250
G1 X67.524 Y91.613 Z0.080 E0.0008 F2250
G1 X67.745 Y91.485 Z0.080 E0.0056 F2250
G1 X67.777 Y91.468 Z0.080 E0.0008 F2250
G1 X68.583 Y91.048 Z0.080 E0.0200 F2250
G1 X68.616 Y91.031 Z0.080 E0.0008 F2250
G1 X68.847 Y90.924 Z0.080 E0.0056 F2250
G1 X68.881 Y90.909 Z0.080 E0.0008 F2250
G1 X69.720 Y90.561 Z0.080 E0.0200 F2250
G1 X69.755 Y90.548 Z0.080 E0.0008 F2250
G1 X69.994 Y90.461 Z0.080 E0.0056 F2250
G1 X70.029 Y90.449 Z0.080 E0.0008 F2250
G1 X70.896 Y90.175 Z0.080 E0.0200 F2250
G1 X70.931 Y90.165 Z0.080 E0.0008 F2250
G1 X71.177 Y90.099 Z0.080 E0.0056 F2250
G1 X71.213 Y90.091 Z0.080 E0.0008 F2250
G1 X72.100 Y89.894 Z0.080 E0.0200 F2250
G1 X72.136 Y89.887 Z0.080 E0.0008 F2250
G1 X72.387 Y89.842 Z0.080 E0.0056 F2250
G1 X72.424 Y89.837 Z0.080 E0.0008 F2250
G1 X73.325 Y89.718 Z0.080 E0.0200 F2250
G1 X73.361 Y89.714 Z0.080 E0.0008 F2250
G1 X73.615 Y89.692 Z0.080 E0.0056 F2250
G1 X73.652 Y89.690 Z0.080 E0.0008 F2250
G1 X74.560 Y89.650 Z0.080 E0.0200 F2250
G1 X74.597 Y89.649 Z0.080 E0.0008 F2250
G1 X74.852 Y89.649 Z0.080 E0.0056 F2250
G1 X74.888 Y89.650 Z0.080 E0.0008 F2250
G1 X75.797 Y89.690 Z0.080 E0.0200 F2250
G1 X75.833 Y89.692 Z0.080 E0.0008 F2250
G1 X76.087 Y89.714 Z0.080 E0.0056 F2250
G1 X76.124 Y89.718 Z0.080 E0.0008 F2250
G1 X77.025 Y89.837 Z0.080 E0.0200 F2250
G1 X77.061 Y89.842 Z0.080 E0.0008 F2250
G1 X77.312 Y89.887 Z0.080 E0.0056 F2250
G1 X77.348 Y89.894 Z0.080 E0.0008 F2250
G1 X78.236 Y90.091 Z0.080 E0.0200 F2250
G1 X78.271 Y90.099 Z0.080 E0.0008 F2250
G1 X78.517 Y90.165 Z0.080 E0.0056 F2250
G1 X78.553 Y90.175 Z0.080 E0.0008 F2250
G1 X79.420 Y90.449 Z0.080 E0.0200 F2250
G1 X79.454 Y90.461 Z0.080 E0.0008 F2250
G1 X79.694 Y90.548 Z0.080 E0.0056 F2250
G1 X79.728 Y90.561 Z0.080 E0.0008 F2250
G1 X80.568 Y90.909 Z0.080 E0.0200 F2250
G1 X80.601 Y90.924 Z0.080 E0.0008 F2250
G1 X80.832 Y91.031 Z0.080 E0.0056 F2250
G1 X80.865 Y91.048 Z0.080 E0.0008 F2250
G1 X81.672 Y91.468 Z0.080 E0.0200 F2250
G1 X81.704 Y91.485 Z0.080 E0.0008 F2250
G1 X81.925 Y91.613 Z0.080 E0.0056 F2250
G1 X81.956 Y91.632 Z0.080 E0.0008 F2250
G1 X82.723 Y92.120 Z0.080 E0.0200 F2250
G1 X82.753 Y92.140 Z0.080 E0.0008 F2250
G1 X82.962 Y92.287 Z0.080 E0.0056 F2250
G1 X82.991 Y92.308 Z0.080 E0.0008 F2250
G1 X83.713 Y92.862 Z0.080 E0.0200 F2250
G1 X83.741 Y92.885 Z0.080 E0.0008 F2250
G1 X83.937 Y93.048 Z0.080 E0.0056 F2250
G1 X83.964 Y93.073 Z0.080 E0.0008 F2250
G1 X84.634 Y93.687 Z0.080 E0.0200 F2250
G1 X84.661 Y93.712 Z0.080 E0.0008 F2250
G1 X84.841 Y93.892 Z0.080 E0.0056 F2250
G1 X84.866 Y93.919 Z0.080 E0.0008 F2250
G1 X85.481 Y94.589 Z0.080 E0.0200 F2250
G1 X85.505 Y94.617 Z0.080 E0.0008 F2250
G1 X85.669 Y94.812 Z0.080 E0.0056 F2250
G1 X85.692 Y94.841 Z0.080 E0.0008 F2250
G1 X86.245 Y95.562 Z0.080 E0.0200 F2250
G1 X86.267 Y95.591 Z0.080 E0.0008 F2250
G1 X86.413 Y95.800 Z0.080 E0.0056 F2250
G1 X86.433 Y95.831 Z0.080 E0.0008 F2250
G1 X86.922 Y96.597 Z0.080 E0.0200 F2250
G1 X86.941 Y96.629 Z0.080 E0.0008 F2250
G1 X87.068 Y96.850 Z0.080 E0.0056 F2250
G1 X87.086 Y96.882 Z0.080 E0.0008 F2250
G1 X87.506 Y97.688 Z0.080 E0.0200 F2250
G1 X87.522 Y97.721 Z0.080 E0.0008 F2250
G1 X87.629 Y97.952 Z0.080 E0.0056 F2250
G1 X87.644 Y97.985 Z0.080 E0.0008 F2250
G1 X87.992 Y98.825 Z0.080 E0.0200 F2250
G1 X88.005 Y98.859 Z0.080 E0.0008 F2250
G1 X88.093 Y99.099 Z0.080 E0.0056 F2250
G1 X88.104 Y99.134 Z0.080 E0.0008 F2250
G1 X88.378 Y100.001 Z0.080 E0.0200 F2250
G1 X88.388 Y100.036 Z0.080 E0.0008 F2250
G1 X88.454 Y100.282 Z0.080 E0.0056 F2250
G1 X88.463 Y100.318 Z0.080 E0.0008 F2250
G1 X88.660 Y101.205 Z0.080 E0.0200 F2250
G1 X88.667 Y101.241 Z0.080 E0.0008 F2250
G1 X88.711 Y101.492 Z0.080 E0.0056 F2250
G1 X88.716 Y101.528 Z0.080 E0.0008 F2250
G1 X88.835 Y102.430 Z0.080 E0.0200 F2250
G1 X88.839 Y102.466 Z0.080 E0.0008 F2250
G1 X88.861 Y102.720 Z0.080 E0.0056 F2250
G1 X88.864 Y102.757 Z0.080 E0.0008 F2250
G1 X88.903 Y103.665 Z0.080 E0.0200 F2250
G1 X88.904 Y103.702 Z0.080 E0.0008 F2250
G1 X88.904 Y103.957 Z0.080 E0.0056 F2250
G1 X88.903 Y103.993 Z0.080 E0.0008 F2250
G1 X88.864 Y104.901 Z0.080 E0.0200 F2250
G1 X88.861 Y104.938 Z0.080 E0.0008 F2250
G1 X88.839 Y105.192 Z0.080 E0.0056 F2250
G1 X88.835 Y105.228 Z0.080 E0.0008 F2250
G1 X88.716 Y106.130 Z0.080 E0.0200 F2250
G1 X88.711 Y106.166 Z0.080 E0.0008 F2250
G1 X88.667 Y106.417 Z0.080 E0.0056 F2250
G1 X88.660 Y106.453 Z0.080 E0.0008 F2250
G1 X88.463 Y107.340 Z0.080 E0.0200 F2250
G1 X88.454 Y107.376 Z0.080 E0.0008 F2250
G1 X88.388 Y107.622 Z0.080 E0.0056 F2250
G1 X88.378 Y107.657 Z0.080 E0.0008 F2250
G1 X88.104 Y108.525 Z0.080 E0.0200 F2250
G1 X88.093 Y108.559 Z0.080 E0.0008 F2250
G1 X88.005 Y108.799 Z0.080 E0.0056 F2250
