; G-Code generated by Simplify3D(R) Version 4.0.0
; Nov 1, 2022 at 8:12:11 PM
; Settings Summary
;   processName,Process1
;   applyToModels,BottomPart v1,TopPart v1
;   profileName,TPU White (modified)
;   profileVersion,2022-04-13 13:35:08
;   baseProfile,Default (modified)
;   printMaterial,PLA
;   printQuality,Medium
;   printExtruders,
;   extruderName,Primary Extruder
;   extruderToolheadNumber,0
;   extruderDiameter,0.4
;   extruderAutoWidth,1
;   extruderWidth,0.48
;   extrusionMultiplier,1.1
;   extruderUseRetract,1
;   extruderRetractionDistance,8
;   extruderExtraRestartDistance,0
;   extruderRetractionZLift,0
;   extruderRetractionSpeed,1200
;   extruderUseCoasting,1
;   extruderCoastingDistance,0.4
;   extruderUseWipe,0
;   extruderWipeDistance,1
;   primaryExtruder,0
;   layerHeight,0.28
;   topSolidLayers,3
;   bottomSolidLayers,3
;   perimeterOutlines,2
;   printPerimetersInsideOut,1
;   startPointOption,2
;   startPointOriginX,0
;   startPointOriginY,0
;   sequentialIslands,0
;   spiralVaseMode,0
;   firstLayerHeightPercentage,80
;   firstLayerWidthPercentage,100
;   firstLayerUnderspeed,0.75
;   useRaft,0
;   raftExtruder,0
;   raftTopLayers,3
;   raftBaseLayers,2
;   raftOffset,3
;   raftSeparationDistance,0.14
;   raftTopInfill,100
;   aboveRaftSpeedMultiplier,0.3
;   useSkirt,1
;   skirtExtruder,0
;   skirtLayers,1
;   skirtOutlines,4
;   skirtOffset,5
;   usePrimePillar,0
;   primePillarExtruder,999
;   primePillarWidth,12
;   primePillarLocation,7
;   primePillarSpeedMultiplier,1
;   useOozeShield,0
;   oozeShieldExtruder,999
;   oozeShieldOffset,2
;   oozeShieldOutlines,1
;   oozeShieldSidewallShape,1
;   oozeShieldSidewallAngle,30
;   oozeShieldSpeedMultiplier,1
;   infillExtruder,0
;   internalInfillPattern,Rectilinear
;   externalInfillPattern,Rectilinear
;   infillPercentage,30
;   outlineOverlapPercentage,15
;   infillExtrusionWidthPercentage,100
;   minInfillLength,5
;   infillLayerInterval,1
;   internalInfillAngles,45,-45
;   overlapInternalInfillAngles,0
;   externalInfillAngles,45,-45
;   generateSupport,0
;   supportExtruder,0
;   supportInfillPercentage,20
;   supportExtraInflation,0
;   supportBaseLayers,0
;   denseSupportExtruder,0
;   denseSupportLayers,0
;   denseSupportInfillPercentage,70
;   supportLayerInterval,1
;   supportHorizontalPartOffset,0.3
;   supportUpperSeparationLayers,1
;   supportLowerSeparationLayers,1
;   supportType,0
;   supportGridSpacing,4
;   maxOverhangAngle,30
;   supportAngles,0
;   temperatureName,Primary Extruder
;   temperatureNumber,0
;   temperatureSetpointCount,1
;   temperatureSetpointLayers,1
;   temperatureSetpointTemperatures,220
;   temperatureStabilizeAtStartup,1
;   temperatureHeatedBed,0
;   temperatureRelayBetweenLayers,0
;   temperatureRelayBetweenLoops,0
;   fanLayers,1
;   fanSpeeds,0
;   blipFanToFullPower,1
;   adjustSpeedForCooling,1
;   minSpeedLayerTime,15
;   minCoolingSpeedSlowdown,30
;   increaseFanForCooling,0
;   minFanLayerTime,45
;   maxCoolingFanSpeed,100
;   increaseFanForBridging,0
;   bridgingFanSpeed,100
;   use5D,1
;   relativeEdistances,1
;   allowEaxisZeroing,0
;   independentExtruderAxes,0
;   includeM10123,0
;   stickySupport,0
;   applyToolheadOffsets,0
;   gcodeXoffset,0
;   gcodeYoffset,0
;   gcodeZoffset,0
;   overrideMachineDefinition,0
;   machineTypeOverride,0
;   strokeXoverride,300
;   strokeYoverride,190
;   strokeZoverride,200
;   originOffsetXoverride,0
;   originOffsetYoverride,0
;   originOffsetZoverride,0
;   homeXdirOverride,-1
;   homeYdirOverride,1
;   homeZdirOverride,-1
;   flipXoverride,1
;   flipYoverride,-1
;   flipZoverride,1
;   toolheadOffsets,0,0|0,0|0,0|0,0|0,0|0,0
;   overrideFirmwareConfiguration,0
;   firmwareTypeOverride,RepRap (Marlin/Repetier/Sprinter)
;   GPXconfigOverride,r2
;   baudRateOverride,115200
;   overridePrinterModels,0
;   printerModelsOverride
;   startingGcode,G28 ; home all axes,G0 X150 Y100;,G0 Z5;
;   layerChangeGcode,
;   retractionGcode,
;   toolChangeGcode,
;   endingGcode,G0 X150 Y230.00;,,M300 S440 P200 ; play a tone,M300 S660 P250,M300 S880 P300,,M104 S0 ; turn off extruder,M140 S0 ; turn off bed,M84 ; disable motors
;   exportFileFormat,gcode
;   celebration,0
;   celebrationSong,Random Song
;   postProcessing,
;   defaultSpeed,3000
;   outlineUnderspeed,0.75
;   solidInfillUnderspeed,0.8
;   supportUnderspeed,0.8
;   rapidXYspeed,3600
;   rapidZspeed,42
;   minBridgingArea,50
;   bridgingExtraInflation,0
;   bridgingExtrusionMultiplier,1
;   bridgingSpeedMultiplier,1
;   useFixedBridgingAngle,0
;   fixedBridgingAngle,0
;   applyBridgingToPerimeters,0
;   filamentDiameters,1.75|1.75|1.75|1.75|1.75|1.75
;   filamentPricesPerKg,4400|46|46|46|46|46
;   filamentDensities,1.43|1.25|1.25|1.25|1.25|1.25
;   useMinPrintHeight,0
;   minPrintHeight,1
;   useMaxPrintHeight,0
;   maxPrintHeight,1
;   useDiaphragm,0
;   diaphragmLayerInterval,20
;   robustSlicing,1
;   mergeAllIntoSolid,0
;   onlyRetractWhenCrossingOutline,1
;   retractBetweenLayers,1
;   useRetractionMinTravel,1
;   retractionMinTravel,3
;   retractWhileWiping,0
;   onlyWipeOutlines,1
;   avoidCrossingOutline,1
;   maxMovementDetourFactor,3
;   toolChangeRetractionDistance,12
;   toolChangeExtraRestartDistance,-0.5
;   toolChangeRetractionSpeed,600
;   externalThinWallType,0
;   internalThinWallType,1
;   thinWallAllowedOverlapPercentage,10
;   singleExtrusionMinLength,1
;   singleExtrusionMinPrintingWidthPercentage,50
;   singleExtrusionMaxPrintingWidthPercentage,200
;   singleExtrusionEndpointExtension,0.2
;   horizontalSizeCompensation,0
G90
M83
M106 S255
G4 P500
M106 S0
M104 S220 T0
M109 S220 T0
G28 ; home all axes
G0 X150 Y100;
G0 Z5;
G1 X0.000 Y0.000 Z0.000 E-8.0000 F1200
G1 X0.000 Y0.000 Z0.224 F42
; process Process1
; layer 1, Z = 0.224
T0
; tool H0.280 W0.480
; skirt
G1 X126.581 Y72.222 Z0.224 F3600
G1 X126.581 Y72.222 Z0.224 E8.0000 F360
G1 X127.369 Y70.872 Z0.224 E0.0961 F2250
G1 X127.383 Y70.850 Z0.224 E0.0016 F2250
G1 X127.479 Y70.696 Z0.224 E0.0112 F2250
G1 X127.493 Y70.674 Z0.224 E0.0016 F2250
G1 X128.211 Y69.604 Z0.224 E0.0792 F2250
G1 X128.226 Y69.583 Z0.224 E0.0016 F2250
G1 X128.332 Y69.435 Z0.224 E0.0112 F2250
G1 X128.348 Y69.414 Z0.224 E0.0016 F2250
G1 X129.297 Y68.173 Z0.224 E0.0961 F2250
G1 X129.314 Y68.152 Z0.224 E0.0016 F2250
G1 X129.428 Y68.012 Z0.224 E0.0112 F2250
G1 X129.445 Y67.992 Z0.224 E0.0016 F2250
G1 X130.287 Y67.023 Z0.224 E0.0789 F2250
G1 X130.303 Y67.005 Z0.224 E0.0015 F2250
G1 X130.420 Y66.878 Z0.224 E0.0106 F2250
G1 X130.437 Y66.860 Z0.224 E0.0015 F2250
G1 X131.434 Y65.841 Z0.224 E0.0876 F2250
G1 X131.453 Y65.822 Z0.224 E0.0017 F2250
G1 X131.592 Y65.689 Z0.224 E0.0118 F2250
G1 X131.612 Y65.670 Z0.224 E0.0017 F2250
G1 X132.783 Y64.621 Z0.224 E0.0967 F2250
G1 X132.804 Y64.602 Z0.224 E0.0017 F2250
G1 X132.951 Y64.479 Z0.224 E0.0118 F2250
G1 X132.972 Y64.462 Z0.224 E0.0017 F2250
G1 X134.093 Y63.582 Z0.224 E0.0876 F2250
G1 X134.113 Y63.567 Z0.224 E0.0015 F2250
G1 X134.251 Y63.465 Z0.224 E0.0106 F2250
G1 X134.271 Y63.451 Z0.224 E0.0015 F2250
G1 X135.326 Y62.719 Z0.224 E0.0789 F2250
G1 X135.347 Y62.704 Z0.224 E0.0016 F2250
G1 X135.500 Y62.606 Z0.224 E0.0112 F2250
G1 X135.522 Y62.592 Z0.224 E0.0016 F2250
G1 X136.863 Y61.780 Z0.224 E0.0964 F2250
G1 X136.887 Y61.766 Z0.224 E0.0017 F2250
G1 X137.054 Y61.672 Z0.224 E0.0118 F2250
G1 X137.078 Y61.659 Z0.224 E0.0017 F2250
G1 X138.348 Y61.000 Z0.224 E0.0879 F2250
G1 X138.372 Y60.988 Z0.224 E0.0016 F2250
G1 X138.535 Y60.910 Z0.224 E0.0112 F2250
G1 X138.559 Y60.899 Z0.224 E0.0016 F2250
G1 X139.858 Y60.324 Z0.224 E0.0873 F2250
G1 X139.881 Y60.314 Z0.224 E0.0015 F2250
G1 X140.040 Y60.250 Z0.224 E0.0106 F2250
G1 X140.063 Y60.241 Z0.224 E0.0015 F2250
G1 X141.260 Y59.793 Z0.224 E0.0786 F2250
G1 X141.284 Y59.785 Z0.224 E0.0015 F2250
G1 X141.446 Y59.729 Z0.224 E0.0105 F2250
G1 X141.470 Y59.722 Z0.224 E0.0015 F2250
G1 X142.832 Y59.302 Z0.224 E0.0876 F2250
G1 X142.858 Y59.294 Z0.224 E0.0017 F2250
G1 X143.043 Y59.244 Z0.224 E0.0118 F2250
G1 X143.070 Y59.237 Z0.224 E0.0017 F2250
G1 X144.595 Y58.875 Z0.224 E0.0964 F2250
G1 X144.621 Y58.869 Z0.224 E0.0016 F2250
G1 X144.799 Y58.832 Z0.224 E0.0112 F2250
G1 X144.825 Y58.828 Z0.224 E0.0016 F2250
G1 X146.089 Y58.609 Z0.224 E0.0789 F2250
G1 X146.114 Y58.605 Z0.224 E0.0015 F2250
G1 X146.283 Y58.581 Z0.224 E0.0105 F2250
G1 X146.308 Y58.578 Z0.224 E0.0015 F2250
G1 X147.725 Y58.418 Z0.224 E0.0876 F2250
G1 X147.752 Y58.416 Z0.224 E0.0017 F2250
G1 X147.943 Y58.400 Z0.224 E0.0118 F2250
G1 X147.971 Y58.399 Z0.224 E0.0017 F2250
G1 X149.537 Y58.325 Z0.224 E0.0964 F2250
G1 X149.563 Y58.325 Z0.224 E0.0016 F2250
G1 X149.745 Y58.322 Z0.224 E0.0112 F2250
G1 X149.771 Y58.322 Z0.224 E0.0016 F2250
G1 X151.054 Y58.342 Z0.224 E0.0789 F2250
G1 X151.079 Y58.343 Z0.224 E0.0015 F2250
G1 X151.250 Y58.350 Z0.224 E0.0105 F2250
G1 X151.275 Y58.352 Z0.224 E0.0015 F2250
G1 X152.691 Y58.457 Z0.224 E0.0873 F2250
G1 X152.717 Y58.460 Z0.224 E0.0016 F2250
G1 X152.898 Y58.479 Z0.224 E0.0112 F2250
G1 X152.924 Y58.482 Z0.224 E0.0016 F2250
G1 X154.336 Y58.676 Z0.224 E0.0876 F2250
G1 X154.362 Y58.680 Z0.224 E0.0016 F2250
G1 X154.541 Y58.710 Z0.224 E0.0112 F2250
G1 X154.567 Y58.715 Z0.224 E0.0016 F2250
G1 X155.969 Y58.997 Z0.224 E0.0879 F2250
G1 X155.996 Y59.003 Z0.224 E0.0017 F2250
G1 X156.183 Y59.047 Z0.224 E0.0118 F2250
G1 X156.210 Y59.054 Z0.224 E0.0017 F2250
G1 X157.723 Y59.464 Z0.224 E0.0964 F2250
G1 X157.748 Y59.471 Z0.224 E0.0016 F2250
G1 X157.922 Y59.524 Z0.224 E0.0112 F2250
G1 X157.947 Y59.532 Z0.224 E0.0016 F2250
G1 X159.162 Y59.944 Z0.224 E0.0789 F2250
G1 X159.185 Y59.952 Z0.224 E0.0015 F2250
G1 X159.346 Y60.012 Z0.224 E0.0106 F2250
G1 X159.369 Y60.021 Z0.224 E0.0015 F2250
G1 X160.686 Y60.555 Z0.224 E0.0873 F2250
G1 X160.710 Y60.565 Z0.224 E0.0016 F2250
G1 X160.876 Y60.638 Z0.224 E0.0112 F2250
G1 X160.900 Y60.649 Z0.224 E0.0016 F2250
G1 X162.185 Y61.266 Z0.224 E0.0876 F2250
G1 X162.208 Y61.278 Z0.224 E0.0016 F2250
G1 X162.370 Y61.362 Z0.224 E0.0112 F2250
G1 X162.393 Y61.374 Z0.224 E0.0016 F2250
G1 X163.641 Y62.072 Z0.224 E0.0879 F2250
G1 X163.665 Y62.086 Z0.224 E0.0017 F2250
G1 X163.829 Y62.185 Z0.224 E0.0118 F2250
G1 X163.853 Y62.200 Z0.224 E0.0017 F2250
G1 X165.172 Y63.056 Z0.224 E0.0967 F2250
G1 X165.195 Y63.071 Z0.224 E0.0017 F2250
G1 X165.352 Y63.180 Z0.224 E0.0118 F2250
G1 X165.375 Y63.197 Z0.224 E0.0017 F2250
G1 X166.521 Y64.052 Z0.224 E0.0879 F2250
G1 X166.542 Y64.068 Z0.224 E0.0016 F2250
G1 X166.684 Y64.181 Z0.224 E0.0112 F2250
G1 X166.704 Y64.198 Z0.224 E0.0016 F2250
G1 X167.788 Y65.117 Z0.224 E0.0873 F2250
G1 X167.806 Y65.133 Z0.224 E0.0015 F2250
G1 X167.934 Y65.248 Z0.224 E0.0106 F2250
G1 X167.952 Y65.264 Z0.224 E0.0015 F2250
G1 X168.877 Y66.147 Z0.224 E0.0786 F2250
G1 X168.894 Y66.164 Z0.224 E0.0015 F2250
G1 X169.015 Y66.286 Z0.224 E0.0105 F2250
G1 X169.032 Y66.304 Z0.224 E0.0015 F2250
G1 X170.004 Y67.347 Z0.224 E0.0876 F2250
G1 X170.022 Y67.368 Z0.224 E0.0017 F2250
G1 X170.148 Y67.512 Z0.224 E0.0118 F2250
G1 X170.166 Y67.533 Z0.224 E0.0017 F2250
G1 X171.157 Y68.748 Z0.224 E0.0964 F2250
G1 X171.173 Y68.769 Z0.224 E0.0016 F2250
G1 X171.284 Y68.913 Z0.224 E0.0112 F2250
G1 X171.299 Y68.934 Z0.224 E0.0016 F2250
G1 X172.047 Y69.977 Z0.224 E0.0789 F2250
G1 X172.061 Y69.997 Z0.224 E0.0015 F2250
G1 X172.157 Y70.140 Z0.224 E0.0105 F2250
G1 X172.171 Y70.160 Z0.224 E0.0015 F2250
G1 X172.932 Y71.365 Z0.224 E0.0876 F2250
G1 X172.946 Y71.389 Z0.224 E0.0017 F2250
G1 X173.043 Y71.554 Z0.224 E0.0118 F2250
G1 X173.057 Y71.578 Z0.224 E0.0017 F2250
G1 X173.805 Y72.956 Z0.224 E0.0964 F2250
G1 X173.817 Y72.979 Z0.224 E0.0016 F2250
G1 X173.899 Y73.141 Z0.224 E0.0112 F2250
G1 X173.910 Y73.165 Z0.224 E0.0016 F2250
G1 X174.452 Y74.329 Z0.224 E0.0789 F2250
G1 X174.462 Y74.351 Z0.224 E0.0015 F2250
G1 X174.530 Y74.509 Z0.224 E0.0105 F2250
G1 X174.539 Y74.532 Z0.224 E0.0015 F2250
G1 X175.064 Y75.857 Z0.224 E0.0876 F2250
G1 X175.073 Y75.883 Z0.224 E0.0017 F2250
G1 X175.138 Y76.064 Z0.224 E0.0118 F2250
G1 X175.147 Y76.090 Z0.224 E0.0017 F2250
G1 X175.627 Y77.582 Z0.224 E0.0964 F2250
G1 X175.634 Y77.607 Z0.224 E0.0016 F2250
G1 X175.684 Y77.782 Z0.224 E0.0112 F2250
G1 X175.691 Y77.807 Z0.224 E0.0016 F2250
G1 X176.007 Y79.051 Z0.224 E0.0789 F2250
G1 X176.013 Y79.075 Z0.224 E0.0015 F2250
G1 X176.050 Y79.242 Z0.224 E0.0106 F2250
G1 X176.055 Y79.267 Z0.224 E0.0015 F2250
G1 X176.325 Y80.667 Z0.224 E0.0876 F2250
G1 X176.329 Y80.694 Z0.224 E0.0017 F2250
G1 X176.360 Y80.883 Z0.224 E0.0118 F2250
G1 X176.363 Y80.910 Z0.224 E0.0017 F2250
G1 X176.559 Y82.471 Z0.224 E0.0967 F2250
G1 X176.562 Y82.498 Z0.224 E0.0017 F2250
G1 X176.579 Y82.689 Z0.224 E0.0118 F2250
G1 X176.581 Y82.717 Z0.224 E0.0017 F2250
G1 X176.665 Y84.145 Z0.224 E0.0879 F2250
G1 X176.666 Y84.171 Z0.224 E0.0016 F2250
G1 X176.671 Y84.353 Z0.224 E0.0112 F2250
G1 X176.672 Y84.379 Z0.224 E0.0016 F2250
G1 X176.667 Y85.804 Z0.224 E0.0876 F2250
G1 X176.666 Y85.830 Z0.224 E0.0016 F2250
G1 X176.660 Y86.012 Z0.224 E0.0112 F2250
G1 X176.659 Y86.038 Z0.224 E0.0016 F2250
G1 X176.566 Y87.456 Z0.224 E0.0873 F2250
G1 X176.564 Y87.480 Z0.224 E0.0015 F2250
G1 X176.547 Y87.651 Z0.224 E0.0106 F2250
G1 X176.545 Y87.676 Z0.224 E0.0015 F2250
G1 X176.385 Y88.949 Z0.224 E0.0789 F2250
G1 X176.382 Y88.975 Z0.224 E0.0016 F2250
G1 X176.353 Y89.154 Z0.224 E0.0112 F2250
G1 X176.349 Y89.180 Z0.224 E0.0016 F2250
G1 X176.058 Y90.721 Z0.224 E0.0964 F2250
G1 X176.053 Y90.748 Z0.224 E0.0017 F2250
G1 X176.011 Y90.935 Z0.224 E0.0118 F2250
G1 X176.004 Y90.962 Z0.224 E0.0017 F2250
G1 X175.649 Y92.342 Z0.224 E0.0876 F2250
G1 X175.642 Y92.366 Z0.224 E0.0015 F2250
G1 X175.594 Y92.531 Z0.224 E0.0105 F2250
G1 X175.587 Y92.554 Z0.224 E0.0015 F2250
G1 X175.194 Y93.776 Z0.224 E0.0789 F2250
G1 X175.186 Y93.801 Z0.224 E0.0016 F2250
G1 X175.125 Y93.972 Z0.224 E0.0112 F2250
G1 X175.116 Y93.997 Z0.224 E0.0016 F2250
G1 X174.546 Y95.452 Z0.224 E0.0961 F2250
G1 X174.536 Y95.476 Z0.224 E0.0016 F2250
G1 X174.465 Y95.643 Z0.224 E0.0112 F2250
G1 X174.454 Y95.667 Z0.224 E0.0016 F2250
G1 X173.913 Y96.830 Z0.224 E0.0789 F2250
G1 X173.902 Y96.853 Z0.224 E0.0015 F2250
G1 X173.825 Y97.006 Z0.224 E0.0106 F2250
G1 X173.814 Y97.028 Z0.224 E0.0015 F2250
G1 X173.137 Y98.283 Z0.224 E0.0876 F2250
G1 X173.124 Y98.307 Z0.224 E0.0017 F2250
G1 X173.027 Y98.473 Z0.224 E0.0118 F2250
G1 X173.013 Y98.496 Z0.224 E0.0017 F2250
G1 X172.178 Y99.829 Z0.224 E0.0967 F2250
G1 X172.163 Y99.852 Z0.224 E0.0017 F2250
G1 X172.056 Y100.011 Z0.224 E0.0118 F2250
G1 X172.040 Y100.034 Z0.224 E0.0017 F2250
G1 X171.205 Y101.189 Z0.224 E0.0876 F2250
G1 X171.190 Y101.209 Z0.224 E0.0015 F2250
G1 X171.086 Y101.345 Z0.224 E0.0105 F2250
G1 X171.071 Y101.365 Z0.224 E0.0015 F2250
G1 X170.259 Y102.359 Z0.224 E0.0789 F2250
G1 X170.243 Y102.379 Z0.224 E0.0016 F2250
G1 X170.123 Y102.516 Z0.224 E0.0112 F2250
G1 X170.106 Y102.536 Z0.224 E0.0016 F2250
G1 X169.045 Y103.683 Z0.224 E0.0961 F2250
G1 X169.027 Y103.702 Z0.224 E0.0016 F2250
G1 X168.899 Y103.831 Z0.224 E0.0112 F2250
G1 X168.880 Y103.850 Z0.224 E0.0016 F2250
G1 X167.952 Y104.736 Z0.224 E0.0789 F2250
G1 X167.934 Y104.752 Z0.224 E0.0015 F2250
G1 X167.806 Y104.867 Z0.224 E0.0105 F2250
G1 X167.788 Y104.883 Z0.224 E0.0015 F2250
G1 X166.700 Y105.805 Z0.224 E0.0876 F2250
G1 X166.679 Y105.823 Z0.224 E0.0017 F2250
G1 X166.529 Y105.942 Z0.224 E0.0118 F2250
G1 X166.507 Y105.959 Z0.224 E0.0017 F2250
G1 X165.787 Y106.492 Z0.224 E0.0551 F2250
G1 X166.671 Y107.775 Z0.224 E0.0958 F2250
G1 X166.788 Y108.024 Z0.224 E0.0169 F2250
G1 X167.225 Y109.561 Z0.224 E0.0982 F2250
G1 X167.249 Y109.675 Z0.224 E0.0072 F2250
G1 X167.361 Y110.477 Z0.224 E0.0498 F2250
G1 X167.369 Y110.593 Z0.224 E0.0072 F2250
G1 X167.369 Y124.402 Z0.224 E0.8488 F2250
G1 X167.361 Y124.518 Z0.224 E0.0072 F2250
G1 X167.249 Y125.320 Z0.224 E0.0498 F2250
G1 X167.225 Y125.434 Z0.224 E0.0072 F2250
G1 X166.788 Y126.971 Z0.224 E0.0982 F2250
G1 X166.671 Y127.220 Z0.224 E0.0169 F2250
G1 X165.580 Y128.803 Z0.224 E0.1182 F2250
G1 X165.389 Y129.001 Z0.224 E0.0169 F2250
G1 X163.829 Y130.164 Z0.224 E0.1196 F2250
G1 X163.663 Y130.261 Z0.224 E0.0118 F2250
